; HEADER_BLOCK_START
; generated by OrcaSlicer 2.3.0 on 2026-05-05 at 18:42:14
; total layer number: 143
;_GP_TOTAL_LAYER_NUMBER_PLACEHOLDER
; filament_density: 1.24
; filament_diameter: 1.75
; max_z_height: 40.06
; HEADER_BLOCK_END

; THUMBNAIL_BLOCK_START

;
; THUMBNAIL_BLOCK_END

; external perimeters extrusion width = 0.40mm
; perimeters extrusion width = 0.42mm
; infill extrusion width = 0.42mm
; solid infill extrusion width = 0.42mm
; top infill extrusion width = 0.40mm
; first layer extrusion width = 0.50mm

; external perimeters extrusion width = 0.40mm
; perimeters extrusion width = 0.42mm
; infill extrusion width = 0.42mm
; solid infill extrusion width = 0.42mm
; top infill extrusion width = 0.40mm
; first layer extrusion width = 0.50mm

; external perimeters extrusion width = 0.40mm
; perimeters extrusion width = 0.42mm
; infill extrusion width = 0.42mm
; solid infill extrusion width = 0.42mm
; top infill extrusion width = 0.40mm
; first layer extrusion width = 0.50mm

; EXECUTABLE_BLOCK_START
M73 P0 R65
M106 S0
M106 P2 S0
;TYPE:Custom
M190 S55
M104 S220
G90
M83
G1 Z5 F6000
G1 E-0.2 F800
G1 X110 Y-110 F6000
G1 E2 F800
G1 Y-110 X55 Z0.25 F4800
G1 X-55 E8 F2400
G1 Y-109.6 F2400
G1 X55 E5 F2400
G1 Y-110 X55 Z0.45 F4800
G1 X-55 E8 F2400
G1 Y-109.6 F2400
G1 X55 E5 F2400
G92 E0
G90
G21
M83 ; use relative distances for extrusion
; Filament gcode
M106 S0
M106 P2 S0
;LAYER_CHANGE
;Z:0.3
;HEIGHT:0.3
;BEFORE_LAYER_CHANGE
;0.3
G1 E-.8 F2100
;AFTER_LAYER_CHANGE
;0.3
;_SET_FAN_SPEED_CHANGING_LAYER
SET_VELOCITY_LIMIT ACCEL=500
G1 X-18.709 Y-7.531 F30000
G1 Z.7
G1 Z.3
G1 E.8 F2100
;TYPE:Inner wall
;WIDTH:0.5
G1 F3000
G1 X-18.482 Y-7.479 E.01239
G1 X-16.462 Y-5.869 E.13753
G1 X-15.342 Y-3.541 E.13753
G1 X-15.342 Y-.959 E.13753
G1 X-16.462 Y1.369 E.13753
G1 X-18.482 Y2.979 E.13753
G1 X-21 Y3.554 E.13753
G1 X-23.518 Y2.979 E.13753
G1 X-25.538 Y1.369 E.13753
G1 X-26.658 Y-.959 E.13754
G1 X-26.658 Y-3.541 E.13753
G1 X-25.538 Y-5.869 E.13754
G1 X-23.518 Y-7.479 E.13753
G1 X-21.759 Y-7.881 E.09609
G1 X-21 Y-8.054 E.04144
G1 X-18.748 Y-7.54 E.12301
G1 X-18.571 Y-6.993 F30000
G1 F3000
G1 X-16.812 Y-5.59 E.11985
G1 X-15.777 Y-3.442 E.12695
G1 X-15.777 Y-1.058 E.12695
G1 X-16.812 Y1.09 E.12695
G1 X-18.676 Y2.577 E.12695
G1 X-21 Y3.107 E.12695
G1 X-23.324 Y2.577 E.12695
G1 X-25.188 Y1.09 E.12695
G1 X-26.223 Y-1.058 E.12695
G1 X-26.223 Y-3.442 E.12695
G1 X-25.188 Y-5.59 E.12695
G1 X-23.324 Y-7.077 E.12695
G1 X-21.662 Y-7.456 E.0908
G1 X-21 Y-7.607 E.03615
G1 X-18.676 Y-7.077 E.12695
G1 X-18.603 Y-7.018 E.00497
G1 X-18.843 Y-6.653 F30000
;TYPE:Outer wall
G1 F3000
G1 X-17.161 Y-5.312 E.11455
G1 X-16.213 Y-3.343 E.11636
G1 X-16.213 Y-1.157 E.11636
G1 X-17.161 Y.812 E.11636
G1 X-18.87 Y2.174 E.11636
G1 X-21 Y2.66 E.11636
G1 X-23.13 Y2.174 E.11636
G1 X-24.839 Y.812 E.11636
G1 X-25.787 Y-1.157 E.11636
G1 X-25.787 Y-3.343 E.11636
G1 X-24.839 Y-5.312 E.11636
G1 X-23.13 Y-6.674 E.11636
G1 X-21.565 Y-7.031 E.0855
G1 X-21 Y-7.16 E.03085
G1 X-18.875 Y-6.675 E.11603
G1 E-.8 F2100
;WIPE_START
G1 F3000
G1 X-17.31 Y-5.43
;WIPE_END
G1 X-13.185 Y.991 Z.7 F30000
G1 X-2.271 Y17.979 Z.7
G1 Z.3
G1 E.8 F2100
;TYPE:Inner wall
G1 F3000
G1 X-39.729 Y17.979 E1.99447
G1 X-39.729 Y-17.979 E1.9146
G1 X-2.271 Y-17.979 E1.99447
G1 X-2.271 Y17.939 E1.91247
G1 X-1.836 Y18.414 F30000
G1 F3000
G1 X-40.164 Y18.414 E2.04086
G1 X-40.164 Y-18.414 E1.96099
G1 X-1.836 Y-18.414 E2.04086
G1 X-1.836 Y18.374 E1.95886
G1 X-1.4 Y18.85 F30000
;TYPE:Outer wall
G1 F3000
G1 X-40.6 Y18.85 E2.08725
G1 X-40.6 Y-18.85 E2.00738
G1 X-1.4 Y-18.85 E2.08725
G1 X-1.4 Y18.81 E2.00525
G1 E-.8 F2100
;WIPE_START
G1 F3000
G1 X-3.4 Y18.812
;WIPE_END
G1 X-3.376 Y11.18 Z.7 F30000
G1 X-3.286 Y-17.848 Z.7
G1 Z.3
G1 E.8 F2100
;TYPE:Bottom surface
;WIDTH:0.501705
G1 F4800
G1 X-2.598 Y-17.16 E.05202
G1 X-2.598 Y-16.541 E.03306
G1 X-3.709 Y-17.652 E.08396
G1 X-4.327 Y-17.652 E.03306
G1 X-2.598 Y-15.923 E.13071
G1 X-2.598 Y-15.304 E.03306
G1 X-4.946 Y-17.652 E.17747
G1 X-5.564 Y-17.652 E.03306
G1 X-2.598 Y-14.686 E.22422
G1 X-2.598 Y-14.068 E.03306
G1 X-6.182 Y-17.652 E.27097
G1 X-6.801 Y-17.652 E.03306
G1 X-2.598 Y-13.449 E.31773
G1 X-2.598 Y-12.831 E.03306
G1 X-7.419 Y-17.652 E.36448
G1 X-8.038 Y-17.652 E.03306
G1 X-2.598 Y-12.212 E.41124
G1 X-2.598 Y-11.594 E.03306
G1 X-8.656 Y-17.652 E.45799
G1 X-9.275 Y-17.652 E.03306
G1 X-2.598 Y-10.975 E.50474
G1 X-2.598 Y-10.357 E.03306
G1 X-9.893 Y-17.652 E.5515
G1 X-10.512 Y-17.652 E.03306
G1 X-2.598 Y-9.738 E.59825
G1 X-2.598 Y-9.12 E.03306
G1 X-11.13 Y-17.652 E.64501
G1 X-11.749 Y-17.652 E.03306
G1 X-2.598 Y-8.501 E.69176
G1 X-2.598 Y-7.883 E.03306
G1 X-12.367 Y-17.652 E.73851
G1 X-12.986 Y-17.652 E.03306
G1 X-2.598 Y-7.264 E.78527
G1 X-2.598 Y-6.646 E.03306
G1 X-13.604 Y-17.652 E.83202
G1 X-14.223 Y-17.652 E.03306
G1 X-2.598 Y-6.027 E.87878
G1 X-2.598 Y-5.409 E.03306
G1 X-14.841 Y-17.652 E.92553
G1 X-15.459 Y-17.652 E.03306
M73 P0 R64
G1 X-2.598 Y-4.791 E.97228
G1 X-2.598 Y-4.172 E.03306
G1 X-16.078 Y-17.652 E1.01904
G1 X-16.696 Y-17.652 E.03306
G1 X-2.598 Y-3.554 E1.06579
G1 X-2.598 Y-2.935 E.03306
G1 X-17.315 Y-17.652 E1.11255
G1 X-17.933 Y-17.652 E.03306
G1 X-2.598 Y-2.317 E1.1593
G1 X-2.598 Y-1.698 E.03306
G1 X-18.552 Y-17.652 E1.20605
G1 X-19.17 Y-17.652 E.03306
G1 X-2.598 Y-1.08 E1.25281
G1 X-2.598 Y-.461 E.03306
G1 X-19.789 Y-17.652 E1.29956
G1 X-20.407 Y-17.652 E.03306
G1 X-2.598 Y.157 E1.34631
G1 X-2.598 Y.776 E.03306
G1 X-21.026 Y-17.652 E1.39307
G1 X-21.644 Y-17.652 E.03306
M73 P1 R64
G1 X-2.598 Y1.394 E1.43982
G1 X-2.598 Y2.013 E.03306
G1 X-22.263 Y-17.652 E1.48658
G1 X-22.881 Y-17.652 E.03306
G1 X-2.598 Y2.631 E1.53333
G1 X-2.598 Y3.25 E.03306
G1 X-23.5 Y-17.652 E1.58008
G1 X-24.118 Y-17.652 E.03306
G1 X-2.598 Y3.868 E1.62684
G1 X-2.598 Y4.487 E.03306
G1 X-24.737 Y-17.652 E1.67359
G1 X-25.355 Y-17.652 E.03306
G1 X-2.598 Y5.105 E1.72035
G1 X-2.598 Y5.723 E.03306
G1 X-25.973 Y-17.652 E1.7671
G1 X-26.592 Y-17.652 E.03306
G1 X-2.598 Y6.342 E1.81385
G1 X-2.598 Y6.96 E.03306
G1 X-27.21 Y-17.652 E1.86061
G1 X-27.829 Y-17.652 E.03306
G1 X-2.598 Y7.579 E1.90736
G1 X-2.598 Y8.197 E.03306
G1 X-15.575 Y-4.78 E.98105
G1 X-15.015 Y-3.601 E.06979
G1 X-2.598 Y8.816 E.93867
G1 X-2.598 Y9.434 E.03306
G1 X-15.015 Y-2.983 E.93867
G1 X-15.015 Y-2.364 E.03306
G1 X-2.598 Y10.053 E.93867
G1 X-2.598 Y10.671 E.03306
G1 X-15.015 Y-1.746 E.93867
G1 X-15.015 Y-1.127 E.03306
G1 X-2.598 Y11.29 E.93867
G1 X-2.598 Y11.908 E.03306
G1 X-15.137 Y-.631 E.94789
G1 X-15.338 Y-.213 E.02477
G1 X-2.598 Y12.527 E.96309
G1 X-2.598 Y13.145 E.03306
G1 X-15.539 Y.204 E.97828
G1 X-15.74 Y.622 E.02477
G1 X-2.598 Y13.764 E.99348
G1 X-2.598 Y14.382 E.03306
G1 X-15.941 Y1.039 E1.00868
G1 X-16.142 Y1.457 E.02477
G1 X-2.598 Y15.001 E1.02388
G1 X-2.598 Y15.619 E.03306
G1 X-16.445 Y1.772 E1.04675
G1 X-16.789 Y2.047 E.02352
G1 X-2.598 Y16.237 E1.07276
G1 X-2.598 Y16.856 E.03306
G1 X-17.133 Y2.321 E1.09877
G1 X-17.477 Y2.596 E.02352
G1 X-2.598 Y17.474 E1.12478
G1 X-2.598 Y17.652 E.0095
G1 X-3.039 Y17.652 E.02356
G1 X-17.821 Y2.87 E1.11747
G1 X-18.165 Y3.144 E.02352
G1 X-3.657 Y17.652 E1.09673
G1 X-4.276 Y17.652 E.03306
G1 X-18.589 Y3.339 E1.08203
G1 X-19.093 Y3.454 E.02761
G1 X-4.894 Y17.652 E1.07334
G1 X-5.513 Y17.652 E.03306
G1 X-19.596 Y3.569 E1.06465
G1 X-20.1 Y3.684 E.02761
G1 X-6.131 Y17.652 E1.05597
G1 X-6.75 Y17.652 E.03306
G1 X-20.603 Y3.798 E1.04728
G1 X-21 Y3.889 E.02176
G1 X-21.17 Y3.85 E.00931
G1 X-7.368 Y17.652 E1.04336
G1 X-7.987 Y17.652 E.03306
G1 X-21.971 Y3.667 E1.05719
G1 X-22.773 Y3.484 E.04394
G1 X-8.409 Y17.848 E1.08583
G1 E-.8 F2100
;WIPE_START
G1 F4800
G1 X-9.823 Y16.434
;WIPE_END
G1 X-13.496 Y9.743 Z.7 F30000
G1 X-28.643 Y-17.848 Z.7
G1 Z.3
G1 E.8 F2100
G1 F4800
G1 X-18.647 Y-7.852 E.75566
G1 X-19.449 Y-8.035 E.04394
G1 X-29.066 Y-17.652 E.72701
G1 X-29.684 Y-17.652 E.03306
G1 X-20.25 Y-8.218 E.71319
G1 X-21 Y-8.389 E.04111
G1 X-21.032 Y-8.382 E.00177
G1 X-30.303 Y-17.652 E.70081
G1 X-30.921 Y-17.652 E.03306
G1 X-21.536 Y-8.267 E.70949
G1 X-22.039 Y-8.152 E.02761
G1 X-31.54 Y-17.652 E.71818
G1 X-32.158 Y-17.652 E.03306
G1 X-22.543 Y-8.037 E.72687
G1 X-23.047 Y-7.922 E.02761
G1 X-32.777 Y-17.652 E.73556
G1 X-33.395 Y-17.652 E.03306
G1 X-23.55 Y-7.807 E.74425
G1 X-23.664 Y-7.781 E.00623
G1 X-23.93 Y-7.569 E.01822
G1 X-34.014 Y-17.652 E.76227
G1 X-34.632 Y-17.652 E.03306
G1 X-24.274 Y-7.294 E.78301
G1 X-24.618 Y-7.02 E.02352
G1 X-35.251 Y-17.652 E.80376
G1 X-35.869 Y-17.652 E.03306
G1 X-24.962 Y-6.745 E.8245
G1 X-25.306 Y-6.471 E.02352
G1 X-36.487 Y-17.652 E.84524
G1 X-37.106 Y-17.652 E.03306
G1 X-25.651 Y-6.197 E.86599
G1 X-25.8 Y-6.078 E.0102
G1 X-25.914 Y-5.841 E.01403
G1 X-37.724 Y-17.652 E.89285
G1 X-38.343 Y-17.652 E.03306
G1 X-26.115 Y-5.424 E.92441
G1 X-26.316 Y-5.006 E.02477
G1 X-38.961 Y-17.652 E.95597
G1 X-39.402 Y-17.652 E.02356
G1 X-39.402 Y-17.474 E.0095
G1 X-26.517 Y-4.589 E.97409
G1 X-26.718 Y-4.171 E.02477
G1 X-39.402 Y-16.856 E.95889
G1 X-39.402 Y-16.237 E.03306
G1 X-26.919 Y-3.754 E.94369
G1 X-26.985 Y-3.616 E.00818
G1 X-26.985 Y-3.202 E.02214
G1 X-39.402 Y-15.619 E.93867
G1 X-39.402 Y-15 E.03306
G1 X-26.985 Y-2.583 E.93867
G1 X-26.985 Y-1.965 E.03306
G1 X-39.402 Y-14.382 E.93867
G1 X-39.402 Y-13.763 E.03306
G1 X-26.985 Y-1.347 E.93867
G1 X-26.985 Y-.884 E.02473
G1 X-26.84 Y-.583 E.01784
G1 X-39.402 Y-13.145 E.94962
G1 X-39.402 Y-12.527 E.03306
G1 X-26.266 Y.61 E.99305
G1 X-25.8 Y1.578 E.05743
G1 X-23.664 Y3.281 E.14604
G1 X-23.574 Y3.302 E.00492
G1 X-9.223 Y17.652 E1.08484
G1 X-9.842 Y17.652 E.03306
G1 X-39.402 Y-11.908 E2.23463
G1 X-39.402 Y-11.29 E.03306
G1 X-10.46 Y17.652 E2.18788
G1 X-11.079 Y17.652 E.03306
G1 X-39.402 Y-10.671 E2.14112
G1 X-39.402 Y-10.053 E.03306
G1 X-11.697 Y17.652 E2.09437
G1 X-12.316 Y17.652 E.03306
G1 X-39.402 Y-9.434 E2.04762
G1 X-39.402 Y-8.816 E.03306
G1 X-12.934 Y17.652 E2.00086
G1 X-13.553 Y17.652 E.03306
G1 X-39.402 Y-8.197 E1.95411
G1 X-39.402 Y-7.579 E.03306
G1 X-14.171 Y17.652 E1.90735
G1 X-14.79 Y17.652 E.03306
G1 X-39.402 Y-6.96 E1.8606
G1 X-39.402 Y-6.342 E.03306
G1 X-15.408 Y17.652 E1.81385
G1 X-16.027 Y17.652 E.03306
G1 X-39.402 Y-5.723 E1.76709
G1 X-39.402 Y-5.105 E.03306
G1 X-16.645 Y17.652 E1.72034
G1 X-17.264 Y17.652 E.03306
G1 X-39.402 Y-4.486 E1.67358
G1 X-39.402 Y-3.868 E.03306
G1 X-17.882 Y17.652 E1.62683
G1 X-18.501 Y17.652 E.03306
G1 X-39.402 Y-3.249 E1.58008
G1 X-39.402 Y-2.631 E.03306
G1 X-19.119 Y17.652 E1.53332
G1 X-19.737 Y17.652 E.03306
G1 X-39.402 Y-2.013 E1.48657
G1 X-39.402 Y-1.394 E.03306
G1 X-20.356 Y17.652 E1.43981
G1 X-20.974 Y17.652 E.03306
M73 P2 R64
G1 X-39.402 Y-.776 E1.39306
G1 X-39.402 Y-.157 E.03306
G1 X-21.593 Y17.652 E1.34631
G1 X-22.211 Y17.652 E.03306
G1 X-39.402 Y.461 E1.29955
G1 X-39.402 Y1.08 E.03306
G1 X-22.83 Y17.652 E1.2528
G1 X-23.448 Y17.652 E.03306
G1 X-39.402 Y1.698 E1.20605
G1 X-39.402 Y2.317 E.03306
G1 X-24.067 Y17.652 E1.15929
G1 X-24.685 Y17.652 E.03306
G1 X-39.402 Y2.935 E1.11254
G1 X-39.402 Y3.554 E.03306
G1 X-25.304 Y17.652 E1.06578
G1 X-25.922 Y17.652 E.03306
G1 X-39.402 Y4.172 E1.01903
G1 X-39.402 Y4.791 E.03306
G1 X-26.541 Y17.652 E.97228
G1 X-27.159 Y17.652 E.03306
G1 X-39.402 Y5.409 E.92552
G1 X-39.402 Y6.028 E.03306
G1 X-27.778 Y17.652 E.87877
G1 X-28.396 Y17.652 E.03306
G1 X-39.402 Y6.646 E.83201
G1 X-39.402 Y7.264 E.03306
G1 X-29.014 Y17.652 E.78526
G1 X-29.633 Y17.652 E.03306
G1 X-39.402 Y7.883 E.73851
G1 X-39.402 Y8.501 E.03306
G1 X-30.251 Y17.652 E.69175
G1 X-30.87 Y17.652 E.03306
G1 X-39.402 Y9.12 E.645
G1 X-39.402 Y9.738 E.03306
G1 X-31.488 Y17.652 E.59824
G1 X-32.107 Y17.652 E.03306
G1 X-39.402 Y10.357 E.55149
G1 X-39.402 Y10.975 E.03306
G1 X-32.725 Y17.652 E.50474
G1 X-33.344 Y17.652 E.03306
G1 X-39.402 Y11.594 E.45798
G1 X-39.402 Y12.212 E.03306
G1 X-33.962 Y17.652 E.41123
G1 X-34.581 Y17.652 E.03306
G1 X-39.402 Y12.831 E.36447
G1 X-39.402 Y13.449 E.03306
G1 X-35.199 Y17.652 E.31772
G1 X-35.818 Y17.652 E.03306
G1 X-39.402 Y14.068 E.27097
G1 X-39.402 Y14.686 E.03306
G1 X-36.436 Y17.652 E.22421
G1 X-37.055 Y17.652 E.03306
G1 X-39.402 Y15.305 E.17746
G1 X-39.402 Y15.923 E.03306
G1 X-37.673 Y17.652 E.1307
G1 X-38.292 Y17.652 E.03306
G1 X-39.402 Y16.542 E.08395
G1 X-39.402 Y17.16 E.03306
G1 X-38.714 Y17.848 E.05202
G1 E-.8 F2100
;WIPE_START
G1 F4800
G1 X-39.402 Y17.16
G1 X-39.402 Y16.542
G1 X-39.113 Y16.83
;WIPE_END
G1 X-31.497 Y16.329 Z.7 F30000
G1 X23.291 Y12.719 Z.7
G1 Z.3
G1 E.8 F2100
;TYPE:Inner wall
;WIDTH:0.5
G1 F3000
G1 X23.518 Y12.771 E.01239
G1 X25.538 Y14.381 E.13753
G1 X26.658 Y16.709 E.13753
G1 X26.658 Y19.291 E.13753
G1 X25.538 Y21.619 E.13753
G1 X23.518 Y23.229 E.13753
G1 X21 Y23.804 E.13753
G1 X18.482 Y23.229 E.13753
G1 X16.462 Y21.619 E.13753
G1 X15.342 Y19.291 E.13754
G1 X15.342 Y16.709 E.13753
G1 X16.462 Y14.381 E.13754
G1 X18.482 Y12.771 E.13753
G1 X20.241 Y12.369 E.09609
G1 X21 Y12.196 E.04144
G1 X23.252 Y12.71 E.12301
G1 X23.429 Y13.257 F30000
G1 F3000
G1 X25.188 Y14.66 E.11985
G1 X26.223 Y16.808 E.12695
G1 X26.223 Y19.192 E.12695
G1 X25.188 Y21.34 E.12695
G1 X23.324 Y22.827 E.12695
G1 X21 Y23.357 E.12695
G1 X18.676 Y22.827 E.12695
G1 X16.812 Y21.34 E.12695
G1 X15.777 Y19.192 E.12695
G1 X15.777 Y16.808 E.12695
G1 X16.812 Y14.66 E.12695
G1 X18.676 Y13.173 E.12695
G1 X20.338 Y12.794 E.0908
G1 X21 Y12.643 E.03615
G1 X23.324 Y13.173 E.12695
G1 X23.397 Y13.232 E.00497
G1 X23.157 Y13.597 F30000
;TYPE:Outer wall
G1 F3000
G1 X24.839 Y14.938 E.11455
G1 X25.787 Y16.907 E.11636
G1 X25.787 Y19.093 E.11636
G1 X24.839 Y21.062 E.11636
G1 X23.13 Y22.424 E.11636
G1 X21 Y22.91 E.11636
G1 X18.87 Y22.424 E.11636
G1 X17.161 Y21.062 E.11636
G1 X16.213 Y19.093 E.11636
G1 X16.213 Y16.907 E.11636
G1 X17.161 Y14.938 E.11636
G1 X18.87 Y13.576 E.11636
G1 X20.435 Y13.219 E.0855
G1 X21 Y13.09 E.03085
G1 X23.125 Y13.575 E.11603
G1 E-.8 F2100
;WIPE_START
G1 F3000
G1 X24.69 Y14.82
;WIPE_END
G1 X28.815 Y21.241 Z.7 F30000
G1 X39.729 Y38.229 Z.7
G1 Z.3
G1 E.8 F2100
;TYPE:Inner wall
G1 F3000
G1 X2.271 Y38.229 E1.99447
G1 X2.271 Y2.271 E1.9146
G1 X39.729 Y2.271 E1.99447
M73 P2 R63
G1 X39.729 Y38.189 E1.91247
G1 X40.164 Y38.664 F30000
G1 F3000
G1 X1.836 Y38.664 E2.04086
G1 X1.836 Y1.836 E1.96099
G1 X40.164 Y1.836 E2.04086
G1 X40.164 Y38.624 E1.95886
G1 X40.6 Y39.1 F30000
;TYPE:Outer wall
G1 F3000
G1 X1.4 Y39.1 E2.08725
G1 X1.4 Y1.4 E2.00738
G1 X40.6 Y1.4 E2.08725
G1 X40.6 Y39.06 E2.00525
G1 E-.8 F2100
;WIPE_START
G1 F3000
G1 X38.6 Y39.062
;WIPE_END
G1 X38.624 Y31.43 Z.7 F30000
G1 X38.714 Y2.402 Z.7
G1 Z.3
G1 E.8 F2100
;TYPE:Bottom surface
;WIDTH:0.501705
G1 F4800
G1 X39.402 Y3.09 E.05202
G1 X39.402 Y3.709 E.03306
G1 X38.291 Y2.598 E.08396
G1 X37.673 Y2.598 E.03306
G1 X39.402 Y4.327 E.13071
G1 X39.402 Y4.946 E.03306
G1 X37.054 Y2.598 E.17747
G1 X36.436 Y2.598 E.03306
G1 X39.402 Y5.564 E.22422
G1 X39.402 Y6.182 E.03306
G1 X35.818 Y2.598 E.27097
G1 X35.199 Y2.598 E.03306
G1 X39.402 Y6.801 E.31773
G1 X39.402 Y7.419 E.03306
G1 X34.581 Y2.598 E.36448
G1 X33.962 Y2.598 E.03306
G1 X39.402 Y8.038 E.41124
G1 X39.402 Y8.656 E.03306
G1 X33.344 Y2.598 E.45799
G1 X32.725 Y2.598 E.03306
G1 X39.402 Y9.275 E.50474
G1 X39.402 Y9.893 E.03306
G1 X32.107 Y2.598 E.5515
G1 X31.488 Y2.598 E.03306
G1 X39.402 Y10.512 E.59825
G1 X39.402 Y11.13 E.03306
G1 X30.87 Y2.598 E.64501
G1 X30.251 Y2.598 E.03306
G1 X39.402 Y11.749 E.69176
G1 X39.402 Y12.367 E.03306
G1 X29.633 Y2.598 E.73851
G1 X29.014 Y2.598 E.03306
G1 X39.402 Y12.986 E.78527
G1 X39.402 Y13.604 E.03306
G1 X28.396 Y2.598 E.83202
G1 X27.777 Y2.598 E.03306
G1 X39.402 Y14.223 E.87878
G1 X39.402 Y14.841 E.03306
G1 X27.159 Y2.598 E.92553
G1 X26.541 Y2.598 E.03306
G1 X39.402 Y15.459 E.97228
G1 X39.402 Y16.078 E.03306
G1 X25.922 Y2.598 E1.01904
G1 X25.304 Y2.598 E.03306
G1 X39.402 Y16.696 E1.06579
G1 X39.402 Y17.315 E.03306
G1 X24.685 Y2.598 E1.11255
G1 X24.067 Y2.598 E.03306
G1 X39.402 Y17.933 E1.1593
G1 X39.402 Y18.552 E.03306
G1 X23.448 Y2.598 E1.20605
G1 X22.83 Y2.598 E.03306
G1 X39.402 Y19.17 E1.25281
G1 X39.402 Y19.789 E.03306
G1 X22.211 Y2.598 E1.29956
G1 X21.593 Y2.598 E.03306
G1 X39.402 Y20.407 E1.34631
G1 X39.402 Y21.026 E.03306
G1 X20.974 Y2.598 E1.39307
G1 X20.356 Y2.598 E.03306
G1 X39.402 Y21.644 E1.43982
