; HEADER_BLOCK_START
; generated by OrcaSlicer 2.3.0 on 2026-05-05 at 18:38:58
; total layer number: 46
;_GP_TOTAL_LAYER_NUMBER_PLACEHOLDER
; filament_density: 1.27
; filament_diameter: 1.75
; max_z_height: 12.90
; HEADER_BLOCK_END

; THUMBNAIL_BLOCK_START

;
; THUMBNAIL_BLOCK_END

; external perimeters extrusion width = 0.40mm
; perimeters extrusion width = 0.42mm
; infill extrusion width = 0.42mm
; solid infill extrusion width = 0.42mm
; top infill extrusion width = 0.40mm
; first layer extrusion width = 0.50mm

; external perimeters extrusion width = 0.40mm
; perimeters extrusion width = 0.42mm
; infill extrusion width = 0.42mm
; solid infill extrusion width = 0.42mm
; top infill extrusion width = 0.40mm
; first layer extrusion width = 0.50mm

; external perimeters extrusion width = 0.40mm
; perimeters extrusion width = 0.42mm
; infill extrusion width = 0.42mm
; solid infill extrusion width = 0.42mm
; top infill extrusion width = 0.40mm
; first layer extrusion width = 0.50mm

; external perimeters extrusion width = 0.40mm
; perimeters extrusion width = 0.42mm
; infill extrusion width = 0.42mm
; solid infill extrusion width = 0.42mm
; top infill extrusion width = 0.40mm
; first layer extrusion width = 0.50mm

; EXECUTABLE_BLOCK_START
M73 P0 R72
M106 S0
M106 P2 S0
;TYPE:Custom
M190 S70
M104 S255
G90
M83
G1 Z5 F6000
G1 E-0.2 F800
G1 X110 Y-110 F6000
G1 E2 F800
G1 Y-110 X55 Z0.25 F4800
G1 X-55 E8 F2400
G1 Y-109.6 F2400
G1 X55 E5 F2400
G1 Y-110 X55 Z0.45 F4800
G1 X-55 E8 F2400
G1 Y-109.6 F2400
G1 X55 E5 F2400
G92 E0
G90
G21
M83 ; use relative distances for extrusion
; filament start gcode 
;right_extruder_material:PETG
SET_PRESSURE_ADVANCE ADVANCE=0.046; Override pressure advance value
M106 S0
M106 P2 S0
;LAYER_CHANGE
;Z:0.3
;HEIGHT:0.3
;BEFORE_LAYER_CHANGE
;0.3
G1 E-.8 F2100
;AFTER_LAYER_CHANGE
;0.3
;_SET_FAN_SPEED_CHANGING_LAYER
SET_VELOCITY_LIMIT ACCEL=500
G1 X39.581 Y-59.9 F30000
G1 Z.7
G1 Z.3
G1 E.8 F2100
;TYPE:Inner wall
;WIDTH:0.5
G1 F3000
G1 X39.581 Y-35.229 E1.34046
G1 X21.038 Y-35.229 E1.00747
G1 X21.038 Y-60.771 E1.3878
G1 X39.581 Y-60.771 E1.00747
G1 X39.581 Y-59.94 E.04516
G1 X39.145 Y-59.9 F30000
G1 F3000
G1 X39.145 Y-35.664 E1.31679
G1 X21.474 Y-35.664 E.96013
G1 X21.474 Y-60.336 E1.34046
G1 X39.145 Y-60.336 E.96013
G1 X39.145 Y-59.94 E.0215
G1 X38.71 Y-59.9 F30000
;TYPE:Outer wall
G1 F3000
G1 X38.71 Y-36.1 E1.29312
G1 X21.91 Y-36.1 E.91279
G1 X21.91 Y-59.9 E1.29312
G1 X38.67 Y-59.9 E.91062
G1 E-.8 F2100
;WIPE_START
G1 F3000
G1 X38.673 Y-57.9
;WIPE_END
G1 X31.512 Y-55.258 Z.7 F30000
G1 X-20.419 Y-36.1 Z.7
G1 Z.3
G1 E.8 F2100
;TYPE:Inner wall
G1 F3000
G1 X-20.419 Y-35.229 E.04734
G1 X-38.962 Y-35.229 E1.00747
G1 X-38.962 Y-60.771 E1.3878
G1 X-20.419 Y-60.771 E1.00747
G1 X-20.419 Y-36.14 E1.33829
G1 X-20.855 Y-36.1 F30000
G1 F3000
G1 X-20.855 Y-35.664 E.02367
G1 X-38.526 Y-35.664 E.96013
G1 X-38.526 Y-60.336 E1.34046
G1 X-20.855 Y-60.336 E.96013
G1 X-20.855 Y-36.14 E1.31462
G1 X-21.29 Y-36.1 F30000
;TYPE:Outer wall
G1 F3000
G1 X-38.09 Y-36.1 E.91279
G1 X-38.09 Y-59.9 E1.29312
G1 X-21.29 Y-59.9 E.91279
G1 X-21.29 Y-36.14 E1.29095
G1 E-.8 F2100
;WIPE_START
G1 F3000
G1 X-23.29 Y-36.135
;WIPE_END
G1 X-15.661 Y-35.916 Z.7 F30000
G1 X41.538 Y-34.271 Z.7
G1 Z.3
G1 E.8 F2100
;TYPE:Inner wall
G1 F3000
G1 X-40.919 Y-34.271 E4.48015
G1 X-40.919 Y-61.729 E1.49185
G1 X41.538 Y-61.729 E4.48015
G1 X41.538 Y-34.311 E1.48967
G1 X41.974 Y-33.836 F30000
G1 F3000
G1 X-41.355 Y-33.836 E4.52749
G1 X-41.355 Y-62.164 E1.53918
M73 P0 R71
G1 X41.974 Y-62.164 E4.52749
G1 X41.974 Y-33.876 E1.53701
G1 X42.41 Y-33.4 F30000
;TYPE:Outer wall
G1 F3000
G1 X-41.79 Y-33.4 E4.57483
G1 X-41.79 Y-62.6 E1.58652
G1 X42.41 Y-62.6 E4.57483
G1 X42.41 Y-33.44 E1.58435
G1 E-.8 F2100
;WIPE_START
G1 F3000
G1 X40.41 Y-33.439
;WIPE_END
G1 X39.799 Y-34.75 Z.7 F30000
G1 Z.3
G1 E.8 F2100
;TYPE:Gap infill
;WIDTH:0.586285
G1 F3000
G1 X20.821 Y-34.75 E1.23537
G1 E-.8 F2100
M73 P1 R71
;WIPE_START
G1 F3000
G1 X22.821 Y-34.75
;WIPE_END
G1 X22.255 Y-42.361 Z.7 F30000
G1 X20.908 Y-60.496 Z.7
G1 Z.3
G1 E.8 F2100
;TYPE:Bottom surface
;WIDTH:0.501783
G1 F4800
G1 X20.002 Y-61.402 E.06991
G1 X19.383 Y-61.402 E.03375
G1 X20.712 Y-60.073 E.10251
G1 X20.712 Y-59.455 E.03375
G1 X18.764 Y-61.402 E.15024
G1 X18.146 Y-61.402 E.03375
G1 X20.712 Y-58.836 E.19796
G1 X20.712 Y-58.218 E.03375
G1 X17.527 Y-61.402 E.24569
G1 X16.909 Y-61.402 E.03375
G1 X20.712 Y-57.599 E.29341
G1 X20.712 Y-56.98 E.03375
G1 X16.29 Y-61.402 E.34114
G1 X15.672 Y-61.402 E.03375
G1 X20.712 Y-56.362 E.38886
G1 X20.712 Y-55.743 E.03375
G1 X15.053 Y-61.402 E.43659
G1 X14.434 Y-61.402 E.03375
G1 X20.712 Y-55.125 E.48431
G1 X20.712 Y-54.506 E.03375
G1 X13.816 Y-61.402 E.53204
G1 X13.197 Y-61.402 E.03375
G1 X20.712 Y-53.888 E.57976
G1 X20.712 Y-53.269 E.03375
G1 X12.579 Y-61.402 E.62749
G1 X11.96 Y-61.402 E.03375
G1 X20.712 Y-52.65 E.67521
G1 X20.712 Y-52.032 E.03375
G1 X11.341 Y-61.402 E.72294
G1 X10.723 Y-61.402 E.03375
G1 X20.712 Y-51.413 E.77066
G1 X20.712 Y-50.795 E.03375
G1 X10.104 Y-61.402 E.81839
G1 X9.486 Y-61.402 E.03375
G1 X20.712 Y-50.176 E.86611
G1 X20.712 Y-49.558 E.03375
G1 X8.867 Y-61.402 E.91384
G1 X8.249 Y-61.402 E.03375
G1 X20.712 Y-48.939 E.96156
G1 X20.712 Y-48.32 E.03375
G1 X7.63 Y-61.402 E1.00929
G1 X7.011 Y-61.402 E.03375
G1 X20.712 Y-47.702 E1.05701
G1 X20.712 Y-47.083 E.03375
G1 X6.393 Y-61.402 E1.10474
G1 X5.774 Y-61.402 E.03375
G1 X20.712 Y-46.465 E1.15246
G1 X20.712 Y-45.846 E.03375
G1 X5.156 Y-61.402 E1.20019
G1 X4.537 Y-61.402 E.03375
G1 X20.712 Y-45.227 E1.24792
G1 X20.712 Y-44.609 E.03375
G1 X3.919 Y-61.402 E1.29564
G1 X3.3 Y-61.402 E.03375
G1 X20.712 Y-43.99 E1.34337
G1 X20.712 Y-43.372 E.03375
G1 X2.681 Y-61.402 E1.39109
G1 X2.063 Y-61.402 E.03375
G1 X20.712 Y-42.753 E1.43882
G1 X20.712 Y-42.135 E.03375
G1 X1.444 Y-61.402 E1.48654
G1 X.826 Y-61.402 E.03375
G1 X20.712 Y-41.516 E1.53427
G1 X20.712 Y-40.897 E.03375
G1 X.207 Y-61.402 E1.58199
G1 X-.412 Y-61.402 E.03375
G1 X20.712 Y-40.279 E1.62972
G1 X20.712 Y-39.66 E.03375
G1 X-1.03 Y-61.402 E1.67744
G1 X-1.649 Y-61.402 E.03375
G1 X20.712 Y-39.042 E1.72517
G1 X20.712 Y-38.423 E.03375
G1 X-2.267 Y-61.402 E1.77289
G1 X-2.886 Y-61.402 E.03375
G1 X20.712 Y-37.804 E1.82062
G1 X20.712 Y-37.186 E.03375
G1 X-3.504 Y-61.402 E1.86834
G1 X-4.123 Y-61.402 E.03375
G1 X20.712 Y-36.567 E1.91607
G1 X20.712 Y-35.949 E.03375
G1 X-4.742 Y-61.402 E1.96379
G1 X-5.36 Y-61.402 E.03375
G1 X20.672 Y-35.37 E2.00845
G1 X20.494 Y-35.37 E.00972
G1 X20.494 Y-34.929 E.02403
G1 X-5.979 Y-61.402 E2.04244
G1 X-6.597 Y-61.402 E.03375
G1 X20.207 Y-34.598 E2.06801
G1 X19.588 Y-34.598 E.03375
G1 X-7.216 Y-61.402 E2.06801
G1 X-7.834 Y-61.402 E.03375
G1 X18.97 Y-34.598 E2.06801
G1 X18.351 Y-34.598 E.03375
G1 X-8.453 Y-61.402 E2.06801
G1 X-9.072 Y-61.402 E.03375
G1 X17.732 Y-34.598 E2.06801
G1 X17.114 Y-34.598 E.03375
G1 X-9.69 Y-61.402 E2.06801
G1 X-10.309 Y-61.402 E.03375
G1 X16.495 Y-34.598 E2.06801
G1 X15.877 Y-34.598 E.03375
G1 X-10.927 Y-61.402 E2.06801
G1 X-11.546 Y-61.402 E.03375
G1 X15.258 Y-34.598 E2.06801
G1 X14.64 Y-34.598 E.03375
G1 X-12.165 Y-61.402 E2.06801
G1 X-12.783 Y-61.402 E.03375
G1 X14.021 Y-34.598 E2.06801
G1 X13.402 Y-34.598 E.03375
G1 X-13.402 Y-61.402 E2.06801
G1 X-14.02 Y-61.402 E.03375
G1 X12.784 Y-34.598 E2.06801
G1 X12.165 Y-34.598 E.03375
G1 X-14.639 Y-61.402 E2.06801
G1 X-15.257 Y-61.402 E.03375
G1 X11.547 Y-34.598 E2.06801
G1 X10.928 Y-34.598 E.03375
G1 X-15.876 Y-61.402 E2.06801
G1 X-16.495 Y-61.402 E.03375
G1 X10.31 Y-34.598 E2.06801
G1 X9.691 Y-34.598 E.03375
G1 X-17.113 Y-61.402 E2.06801
G1 X-17.732 Y-61.402 E.03375
G1 X9.072 Y-34.598 E2.06801
G1 X8.454 Y-34.598 E.03375
G1 X-18.35 Y-61.402 E2.06801
G1 X-18.969 Y-61.402 E.03375
G1 X7.835 Y-34.598 E2.06801
G1 X7.217 Y-34.598 E.03375
G1 X-19.588 Y-61.402 E2.06801
G1 X-19.875 Y-61.402 E.01566
G1 X-19.875 Y-61.071 E.01808
G1 X6.598 Y-34.598 E2.04243
G1 X5.979 Y-34.598 E.03375
G1 X-20.053 Y-60.63 E2.00845
G1 X-20.092 Y-60.63 E.00216
G1 X-20.092 Y-60.051 E.03158
G1 X5.361 Y-34.598 E1.96379
G1 X4.742 Y-34.598 E.03375
G1 X-20.092 Y-59.433 E1.91606
G1 X-20.092 Y-58.814 E.03375
G1 X4.124 Y-34.598 E1.86834
G1 X3.505 Y-34.598 E.03375
G1 X-20.092 Y-58.195 E1.82061
G1 X-20.092 Y-57.577 E.03375
G1 X2.887 Y-34.598 E1.77289
G1 X2.268 Y-34.598 E.03375
G1 X-20.092 Y-56.958 E1.72516
G1 X-20.092 Y-56.34 E.03375
G1 X1.649 Y-34.598 E1.67744
G1 X1.031 Y-34.598 E.03375
G1 X-20.092 Y-55.721 E1.62971
G1 X-20.092 Y-55.103 E.03375
G1 X.412 Y-34.598 E1.58199
G1 X-.206 Y-34.598 E.03375
G1 X-20.092 Y-54.484 E1.53426
G1 X-20.092 Y-53.865 E.03375
G1 X-.825 Y-34.598 E1.48654
G1 X-1.444 Y-34.598 E.03375
G1 X-20.092 Y-53.247 E1.43881
G1 X-20.092 Y-52.628 E.03375
G1 X-2.062 Y-34.598 E1.39109
G1 X-2.681 Y-34.598 E.03375
G1 X-20.092 Y-52.01 E1.34336
G1 X-20.092 Y-51.391 E.03375
G1 X-3.299 Y-34.598 E1.29564
G1 X-3.918 Y-34.598 E.03375
G1 X-20.092 Y-50.773 E1.24791
G1 X-20.092 Y-50.154 E.03375
G1 X-4.536 Y-34.598 E1.20019
G1 X-5.155 Y-34.598 E.03375
G1 X-20.092 Y-49.535 E1.15246
G1 X-20.092 Y-48.917 E.03375
G1 X-5.774 Y-34.598 E1.10474
G1 X-6.392 Y-34.598 E.03375
M73 P2 R71
G1 X-20.092 Y-48.298 E1.05701
G1 X-20.092 Y-47.68 E.03375
G1 X-7.011 Y-34.598 E1.00929
G1 X-7.629 Y-34.598 E.03375
G1 X-20.092 Y-47.061 E.96156
G1 X-20.092 Y-46.442 E.03375
G1 X-8.248 Y-34.598 E.91384
G1 X-8.866 Y-34.598 E.03375
G1 X-20.092 Y-45.824 E.86611
G1 X-20.092 Y-45.205 E.03375
G1 X-9.485 Y-34.598 E.81839
G1 X-10.104 Y-34.598 E.03375
G1 X-20.092 Y-44.587 E.77066
G1 X-20.092 Y-43.968 E.03375
G1 X-10.722 Y-34.598 E.72294
G1 X-11.341 Y-34.598 E.03375
G1 X-20.092 Y-43.35 E.67521
G1 X-20.092 Y-42.731 E.03375
G1 X-11.959 Y-34.598 E.62749
G1 X-12.578 Y-34.598 E.03375
G1 X-20.092 Y-42.112 E.57976
G1 X-20.092 Y-41.494 E.03375
G1 X-13.197 Y-34.598 E.53204
G1 X-13.815 Y-34.598 E.03375
G1 X-20.092 Y-40.875 E.48431
G1 X-20.092 Y-40.257 E.03375
G1 X-14.434 Y-34.598 E.43659
G1 X-15.052 Y-34.598 E.03375
G1 X-20.092 Y-39.638 E.38886
G1 X-20.092 Y-39.019 E.03375
G1 X-15.671 Y-34.598 E.34114
G1 X-16.289 Y-34.598 E.03375
G1 X-20.092 Y-38.401 E.29341
G1 X-20.092 Y-37.782 E.03375
G1 X-16.908 Y-34.598 E.24568
G1 X-17.527 Y-34.598 E.03375
G1 X-20.092 Y-37.164 E.19796
G1 X-20.092 Y-36.545 E.03375
G1 X-18.145 Y-34.598 E.15023
G1 X-18.764 Y-34.598 E.03375
G1 X-20.092 Y-35.927 E.10251
G1 X-20.092 Y-35.37 E.03037
G1 X-19.875 Y-35.37 E.01188
G1 X-19.875 Y-35.09 E.01526
G1 X-19.186 Y-34.402 E.05311
G1 E-.8 F2100
;WIPE_START
G1 F4800
G1 X-19.875 Y-35.09
G1 X-19.875 Y-35.37
G1 X-20.092 Y-35.37
G1 X-20.092 Y-35.899
;WIPE_END
G1 X-20.201 Y-34.75 Z.7 F30000
G1 Z.3
G1 E.8 F2100
;TYPE:Gap infill
;WIDTH:0.586285
G1 F3000
G1 X-39.179 Y-34.75 E1.23537
G1 E-.8 F2100
;WIPE_START
G1 F3000
G1 X-37.179 Y-34.75
;WIPE_END
G1 X-37.745 Y-42.361 Z.7 F30000
G1 X-39.092 Y-60.486 Z.7
G1 Z.3
M73 P2 R70
G1 E.8 F2100
;TYPE:Bottom surface
;WIDTH:0.506502
G1 F4800
G1 X-40.008 Y-61.402 E.07145
G1 X-40.592 Y-61.402 E.0322
G1 X-40.592 Y-61.361 E.00228
G1 X-39.288 Y-60.057 E.1017
G1 X-39.288 Y-59.431 E.03448
G1 X-40.592 Y-60.736 E.1017
G1 X-40.592 Y-60.11 E.03448
G1 X-39.288 Y-58.806 E.1017
G1 X-39.288 Y-58.181 E.03448
G1 X-40.592 Y-59.485 E.1017
G1 X-40.592 Y-58.86 E.03448
G1 X-39.288 Y-57.556 E.1017
G1 X-39.288 Y-56.93 E.03448
G1 X-40.592 Y-58.235 E.1017
G1 X-40.592 Y-57.609 E.03448
G1 X-39.288 Y-56.305 E.1017
G1 X-39.288 Y-55.68 E.03448
G1 X-40.592 Y-56.984 E.1017
G1 X-40.592 Y-56.359 E.03448
G1 X-39.288 Y-55.055 E.1017
G1 X-39.288 Y-54.429 E.03448
G1 X-40.592 Y-55.734 E.1017
G1 X-40.592 Y-55.108 E.03448
G1 X-39.288 Y-53.804 E.1017
G1 X-39.288 Y-53.179 E.03448
G1 X-40.592 Y-54.483 E.1017
G1 X-40.592 Y-53.858 E.03448
G1 X-39.288 Y-52.554 E.1017
G1 X-39.288 Y-51.928 E.03448
G1 X-40.592 Y-53.232 E.1017
G1 X-40.592 Y-52.607 E.03448
G1 X-39.288 Y-51.303 E.1017
G1 X-39.288 Y-50.678 E.03448
G1 X-40.592 Y-51.982 E.1017
G1 X-40.592 Y-51.357 E.03448
G1 X-39.288 Y-50.053 E.1017
G1 X-39.288 Y-49.427 E.03448
G1 X-40.592 Y-50.731 E.1017
G1 X-40.592 Y-50.106 E.03448
G1 X-39.288 Y-48.802 E.1017
G1 X-39.288 Y-48.177 E.03448
G1 X-40.592 Y-49.481 E.1017
G1 X-40.592 Y-48.856 E.03448
G1 X-39.288 Y-47.552 E.1017
G1 X-39.288 Y-46.926 E.03448
G1 X-40.592 Y-48.23 E.1017
G1 X-40.592 Y-47.605 E.03448
G1 X-39.288 Y-46.301 E.1017
G1 X-39.288 Y-45.676 E.03448
G1 X-40.592 Y-46.98 E.1017
G1 X-40.592 Y-46.355 E.03448
G1 X-39.288 Y-45.051 E.1017
G1 X-39.288 Y-44.425 E.03448
G1 X-40.592 Y-45.729 E.1017
G1 X-40.592 Y-45.104 E.03448
G1 X-39.288 Y-43.8 E.1017
G1 X-39.288 Y-43.175 E.03448
G1 X-40.592 Y-44.479 E.1017
G1 X-40.592 Y-43.854 E.03448
G1 X-39.288 Y-42.55 E.1017
G1 X-39.288 Y-41.924 E.03448
G1 X-40.592 Y-43.228 E.1017
G1 X-40.592 Y-42.603 E.03448
G1 X-39.288 Y-41.299 E.1017
G1 X-39.288 Y-40.674 E.03448
G1 X-40.592 Y-41.978 E.1017
G1 X-40.592 Y-41.353 E.03448
G1 X-39.288 Y-40.049 E.1017
G1 X-39.288 Y-39.423 E.03448
G1 X-40.592 Y-40.727 E.1017
G1 X-40.592 Y-40.102 E.03448
G1 X-39.288 Y-38.798 E.1017
G1 X-39.288 Y-38.173 E.03448
G1 X-40.592 Y-39.477 E.1017
G1 X-40.592 Y-38.852 E.03448
G1 X-39.288 Y-37.548 E.1017
G1 X-39.288 Y-36.922 E.03448
G1 X-40.592 Y-38.226 E.1017
G1 X-40.592 Y-37.601 E.03448
G1 X-39.288 Y-36.297 E.1017
G1 X-39.288 Y-35.672 E.03448
G1 X-40.592 Y-36.976 E.1017
G1 X-40.592 Y-36.351 E.03448
G1 X-39.506 Y-35.264 E.08472
G1 X-39.506 Y-34.639 E.03448
G1 X-40.592 Y-35.725 E.08472
G1 X-40.592 Y-35.1 E.03448
G1 X-39.894 Y-34.402 E.05445
G1 E-.8 F2100
;WIPE_START
G1 F4800
G1 X-40.592 Y-35.1
G1 X-40.592 Y-35.725
G1 X-40.319 Y-35.452
;WIPE_END
G1 X-39.982 Y-43.077 Z.7 F30000
G1 X-39.179 Y-61.25 Z.7
G1 Z.3
G1 E.8 F2100
;TYPE:Gap infill
;WIDTH:0.586287
G1 F3000
G1 X-20.201 Y-61.25 E1.23538
G1 E-.8 F2100
;WIPE_START
G1 F3000
G1 X-22.201 Y-61.25
;WIPE_END
G1 X-14.569 Y-61.25 Z.7 F30000
G1 X20.821 Y-61.25 Z.7
G1 Z.3
G1 E.8 F2100
G1 F3000
G1 X39.799 Y-61.25 E1.23538
G1 X40.513 Y-61.598 F30000
;TYPE:Bottom surface
;WIDTH:0.506502
G1 F4800
G1 X41.212 Y-60.9 E.05446
G1 X41.212 Y-60.274 E.03448
G1 X40.125 Y-61.361 E.08472
G1 X40.125 Y-60.736 E.03448
G1 X41.212 Y-59.649 E.08472
G1 X41.212 Y-59.024 E.03448
G1 X39.908 Y-60.328 E.1017
G1 X39.908 Y-59.703 E.03448
G1 X41.212 Y-58.399 E.1017
G1 X41.212 Y-57.773 E.03448
G1 X39.908 Y-59.078 E.1017
G1 X39.908 Y-58.452 E.03448
G1 X41.212 Y-57.148 E.1017
G1 X41.212 Y-56.523 E.03448
G1 X39.908 Y-57.827 E.1017
G1 X39.908 Y-57.202 E.03448
G1 X41.212 Y-55.898 E.1017
G1 X41.212 Y-55.272 E.03448
G1 X39.908 Y-56.577 E.1017
G1 X39.908 Y-55.951 E.03448
G1 X41.212 Y-54.647 E.1017
G1 X41.212 Y-54.022 E.03448
G1 X39.908 Y-55.326 E.1017
G1 X39.908 Y-54.701 E.03448
G1 X41.212 Y-53.397 E.1017
G1 X41.212 Y-52.771 E.03448
G1 X39.908 Y-54.076 E.1017
G1 X39.908 Y-53.45 E.03448
G1 X41.212 Y-52.146 E.1017
G1 X41.212 Y-51.521 E.03448
G1 X39.908 Y-52.825 E.1017
G1 X39.908 Y-52.2 E.03448
G1 X41.212 Y-50.896 E.1017
G1 X41.212 Y-50.27 E.03448
G1 X39.908 Y-51.575 E.1017
G1 X39.908 Y-50.949 E.03448
G1 X41.212 Y-49.645 E.1017
G1 X41.212 Y-49.02 E.03448
G1 X39.908 Y-50.324 E.1017
G1 X39.908 Y-49.699 E.03448
G1 X41.212 Y-48.395 E.1017
G1 X41.212 Y-47.769 E.03448
G1 X39.908 Y-49.074 E.1017
G1 X39.908 Y-48.448 E.03448
G1 X41.212 Y-47.144 E.1017
G1 X41.212 Y-46.519 E.03448
G1 X39.908 Y-47.823 E.1017
G1 X39.908 Y-47.198 E.03448
G1 X41.212 Y-45.894 E.1017
G1 X41.212 Y-45.268 E.03448
G1 X39.908 Y-46.573 E.1017
G1 X39.908 Y-45.947 E.03448
G1 X41.212 Y-44.643 E.1017
G1 X41.212 Y-44.018 E.03448
G1 X39.908 Y-45.322 E.1017
G1 X39.908 Y-44.697 E.03448
G1 X41.212 Y-43.393 E.1017
G1 X41.212 Y-42.767 E.03448
G1 X39.908 Y-44.071 E.1017
G1 X39.908 Y-43.446 E.03448
G1 X41.212 Y-42.142 E.1017
G1 X41.212 Y-41.517 E.03448
G1 X39.908 Y-42.821 E.1017
G1 X39.908 Y-42.196 E.03448
G1 X41.212 Y-40.892 E.1017
G1 X41.212 Y-40.266 E.03448
G1 X39.908 Y-41.57 E.1017
G1 X39.908 Y-40.945 E.03448
G1 X41.212 Y-39.641 E.1017
G1 X41.212 Y-39.016 E.03448
G1 X39.908 Y-40.32 E.1017
G1 X39.908 Y-39.695 E.03448
G1 X41.212 Y-38.391 E.1017
G1 X41.212 Y-37.765 E.03448
G1 X39.908 Y-39.069 E.1017
G1 X39.908 Y-38.444 E.03448
G1 X41.212 Y-37.14 E.1017
G1 X41.212 Y-36.515 E.03448
G1 X39.908 Y-37.819 E.1017
G1 X39.908 Y-37.194 E.03448
