; HEADER_BLOCK_START
; generated by OrcaSlicer 2.3.0 on 2026-05-04 at 17:36:29
; total layer number: 46
;_GP_TOTAL_LAYER_NUMBER_PLACEHOLDER
; filament_density: 1.24
; filament_diameter: 1.75
; max_z_height: 12.90
; HEADER_BLOCK_END

; THUMBNAIL_BLOCK_START

;
; THUMBNAIL_BLOCK_END

; external perimeters extrusion width = 0.40mm
; perimeters extrusion width = 0.42mm
; infill extrusion width = 0.42mm
; solid infill extrusion width = 0.42mm
; top infill extrusion width = 0.40mm
; first layer extrusion width = 0.50mm

; external perimeters extrusion width = 0.40mm
; perimeters extrusion width = 0.42mm
; infill extrusion width = 0.42mm
; solid infill extrusion width = 0.42mm
; top infill extrusion width = 0.40mm
; first layer extrusion width = 0.50mm

; external perimeters extrusion width = 0.40mm
; perimeters extrusion width = 0.42mm
; infill extrusion width = 0.42mm
; solid infill extrusion width = 0.42mm
; top infill extrusion width = 0.40mm
; first layer extrusion width = 0.50mm

; external perimeters extrusion width = 0.40mm
; perimeters extrusion width = 0.42mm
; infill extrusion width = 0.42mm
; solid infill extrusion width = 0.42mm
; top infill extrusion width = 0.40mm
; first layer extrusion width = 0.50mm

; EXECUTABLE_BLOCK_START
M73 P0 R51
M106 S0
M106 P2 S0
;TYPE:Custom
M190 S55
M104 S225
G90
M83
G1 Z5 F6000
G1 E-0.2 F800
G1 X110 Y-110 F6000
G1 E2 F800
G1 Y-110 X55 Z0.25 F4800
G1 X-55 E8 F2400
G1 Y-109.6 F2400
G1 X55 E5 F2400
G1 Y-110 X55 Z0.45 F4800
G1 X-55 E8 F2400
G1 Y-109.6 F2400
G1 X55 E5 F2400
G92 E0
G90
G21
M83 ; use relative distances for extrusion
; filament start gcode
;right_extruder_material: PLA
SET_PRESSURE_ADVANCE ADVANCE=0.025; Override pressure advance value
M106 S0
M106 P2 S0
;LAYER_CHANGE
;Z:0.3
;HEIGHT:0.3
;BEFORE_LAYER_CHANGE
;0.3
G1 E-.8 F2100
;AFTER_LAYER_CHANGE
;0.3
;_SET_FAN_SPEED_CHANGING_LAYER
SET_VELOCITY_LIMIT ACCEL=500
G1 X39.582 Y-59.9 F30000
G1 Z.7
G1 Z.3
G1 E.8 F2100
;TYPE:Inner wall
;WIDTH:0.5
G1 F3000
G1 X39.582 Y-35.229 E1.40748
G1 X21.039 Y-35.229 E1.05784
G1 X21.039 Y-60.771 E1.45719
G1 X39.582 Y-60.771 E1.05784
G1 X39.582 Y-59.94 E.04742
G1 X39.146 Y-59.9 F30000
G1 F3000
G1 X39.146 Y-35.664 E1.38263
G1 X21.475 Y-35.664 E1.00814
G1 X21.475 Y-60.336 E1.40748
G1 X39.146 Y-60.336 E1.00814
M73 P0 R50
G1 X39.146 Y-59.94 E.02257
G1 X38.71 Y-59.9 F30000
;TYPE:Outer wall
G1 F3000
G1 X38.71 Y-36.1 E1.35778
G1 X21.91 Y-36.1 E.95843
G1 X21.91 Y-59.9 E1.35778
G1 X38.67 Y-59.9 E.95615
G1 E-.8 F2100
;WIPE_START
G1 F3000
G1 X38.674 Y-57.9
;WIPE_END
G1 X31.513 Y-55.258 Z.7 F30000
G1 X-20.418 Y-36.1 Z.7
G1 Z.3
G1 E.8 F2100
;TYPE:Inner wall
G1 F3000
G1 X-20.418 Y-35.229 E.0497
G1 X-38.961 Y-35.229 E1.05784
G1 X-38.961 Y-60.771 E1.45719
G1 X-20.418 Y-60.771 E1.05784
G1 X-20.418 Y-36.14 E1.4052
G1 X-20.854 Y-36.1 F30000
G1 F3000
G1 X-20.854 Y-35.664 E.02485
G1 X-38.525 Y-35.664 E1.00814
G1 X-38.525 Y-60.336 E1.40748
G1 X-20.854 Y-60.336 E1.00814
G1 X-20.854 Y-36.14 E1.38035
G1 X-21.29 Y-36.1 F30000
;TYPE:Outer wall
G1 F3000
G1 X-38.09 Y-36.1 E.95843
G1 X-38.09 Y-59.9 E1.35778
G1 X-21.29 Y-59.9 E.95843
G1 X-21.29 Y-36.14 E1.3555
G1 E-.8 F2100
;WIPE_START
G1 F3000
G1 X-23.29 Y-36.135
;WIPE_END
G1 X-15.66 Y-35.916 Z.7 F30000
G1 X41.539 Y-34.271 Z.7
G1 Z.3
G1 E.8 F2100
;TYPE:Inner wall
G1 F3000
G1 X-40.918 Y-34.271 E4.70416
G1 X-40.918 Y-61.729 E1.56644
G1 X41.539 Y-61.729 E4.70416
M73 P1 R50
G1 X41.539 Y-34.311 E1.56416
G1 X41.975 Y-33.836 F30000
G1 F3000
G1 X-41.354 Y-33.836 E4.75386
G1 X-41.354 Y-62.164 E1.61614
G1 X41.975 Y-62.164 E4.75386
G1 X41.975 Y-33.876 E1.61386
G1 X42.41 Y-33.4 F30000
;TYPE:Outer wall
G1 F3000
G1 X-41.79 Y-33.4 E4.80357
G1 X-41.79 Y-62.6 E1.66585
G1 X42.41 Y-62.6 E4.80357
G1 X42.41 Y-33.44 E1.66356
G1 E-.8 F2100
;WIPE_START
G1 F3000
G1 X40.41 Y-33.439
;WIPE_END
G1 X39.799 Y-34.75 Z.7 F30000
G1 Z.3
G1 E.8 F2100
;TYPE:Gap infill
;WIDTH:0.586285
G1 F3000
G1 X20.821 Y-34.75 E1.29714
G1 E-.8 F2100
;WIPE_START
G1 F3000
G1 X22.821 Y-34.75
;WIPE_END
G1 X22.256 Y-42.361 Z.7 F30000
G1 X20.908 Y-60.496 Z.7
G1 Z.3
G1 E.8 F2100
;TYPE:Bottom surface
;WIDTH:0.501783
G1 F4800
G1 X20.002 Y-61.402 E.07341
G1 X19.384 Y-61.402 E.03543
G1 X20.712 Y-60.073 E.10764
G1 X20.712 Y-59.455 E.03543
G1 X18.765 Y-61.402 E.15775
G1 X18.147 Y-61.402 E.03543
G1 X20.712 Y-58.836 E.20786
G1 X20.712 Y-58.218 E.03543
G1 X17.528 Y-61.402 E.25797
G1 X16.909 Y-61.402 E.03543
G1 X20.712 Y-57.599 E.30808
G1 X20.712 Y-56.98 E.03543
G1 X16.291 Y-61.402 E.3582
G1 X15.672 Y-61.402 E.03543
G1 X20.712 Y-56.362 E.40831
G1 X20.712 Y-55.743 E.03543
G1 X15.054 Y-61.402 E.45842
G1 X14.435 Y-61.402 E.03543
G1 X20.712 Y-55.125 E.50853
G1 X20.712 Y-54.506 E.03543
G1 X13.816 Y-61.402 E.55864
G1 X13.198 Y-61.402 E.03543
G1 X20.712 Y-53.888 E.60875
G1 X20.712 Y-53.269 E.03543
G1 X12.579 Y-61.402 E.65886
G1 X11.961 Y-61.402 E.03543
G1 X20.712 Y-52.65 E.70897
G1 X20.712 Y-52.032 E.03543
G1 X11.342 Y-61.402 E.75909
G1 X10.724 Y-61.402 E.03543
G1 X20.712 Y-51.413 E.8092
G1 X20.712 Y-50.795 E.03543
G1 X10.105 Y-61.402 E.85931
G1 X9.486 Y-61.402 E.03543
G1 X20.712 Y-50.176 E.90942
G1 X20.712 Y-49.558 E.03543
G1 X8.868 Y-61.402 E.95953
G1 X8.249 Y-61.402 E.03543
G1 X20.712 Y-48.939 E1.00964
G1 X20.712 Y-48.32 E.03543
G1 X7.631 Y-61.402 E1.05975
G1 X7.012 Y-61.402 E.03543
G1 X20.712 Y-47.702 E1.10987
G1 X20.712 Y-47.083 E.03543
G1 X6.394 Y-61.402 E1.15998
G1 X5.775 Y-61.402 E.03543
G1 X20.712 Y-46.465 E1.21009
G1 X20.712 Y-45.846 E.03543
G1 X5.156 Y-61.402 E1.2602
G1 X4.538 Y-61.402 E.03543
G1 X20.712 Y-45.227 E1.31031
G1 X20.712 Y-44.609 E.03543
G1 X3.919 Y-61.402 E1.36042
G1 X3.301 Y-61.402 E.03543
G1 X20.712 Y-43.99 E1.41053
G1 X20.712 Y-43.372 E.03543
G1 X2.682 Y-61.402 E1.46064
G1 X2.063 Y-61.402 E.03543
G1 X20.712 Y-42.753 E1.51076
G1 X20.712 Y-42.135 E.03543
G1 X1.445 Y-61.402 E1.56087
G1 X.826 Y-61.402 E.03543
G1 X20.712 Y-41.516 E1.61098
G1 X20.712 Y-40.897 E.03543
G1 X.208 Y-61.402 E1.66109
G1 X-.411 Y-61.402 E.03543
G1 X20.712 Y-40.279 E1.7112
G1 X20.712 Y-39.66 E.03543
G1 X-1.029 Y-61.402 E1.76131
G1 X-1.648 Y-61.402 E.03543
G1 X20.712 Y-39.042 E1.81142
G1 X20.712 Y-38.423 E.03543
G1 X-2.267 Y-61.402 E1.86154
G1 X-2.885 Y-61.402 E.03543
G1 X20.712 Y-37.804 E1.91165
G1 X20.712 Y-37.186 E.03543
G1 X-3.504 Y-61.402 E1.96176
G1 X-4.122 Y-61.402 E.03543
G1 X20.712 Y-36.567 E2.01187
G1 X20.712 Y-35.949 E.03543
G1 X-4.741 Y-61.402 E2.06198
G1 X-5.359 Y-61.402 E.03543
G1 X20.673 Y-35.37 E2.10888
G1 X20.495 Y-35.37 E.0102
G1 X20.495 Y-34.929 E.02523
G1 X-5.978 Y-61.402 E2.14456
G1 X-6.597 Y-61.402 E.03543
M73 P2 R50
G1 X20.207 Y-34.598 E2.17141
G1 X19.589 Y-34.598 E.03543
G1 X-7.215 Y-61.402 E2.17141
G1 X-7.834 Y-61.402 E.03543
G1 X18.97 Y-34.598 E2.17141
G1 X18.352 Y-34.598 E.03543
G1 X-8.452 Y-61.402 E2.17141
G1 X-9.071 Y-61.402 E.03543
G1 X17.733 Y-34.598 E2.17141
G1 X17.115 Y-34.598 E.03543
G1 X-9.69 Y-61.402 E2.17141
G1 X-10.308 Y-61.402 E.03543
G1 X16.496 Y-34.598 E2.17141
G1 X15.877 Y-34.598 E.03543
G1 X-10.927 Y-61.402 E2.17141
G1 X-11.545 Y-61.402 E.03543
G1 X15.259 Y-34.598 E2.17141
G1 X14.64 Y-34.598 E.03543
G1 X-12.164 Y-61.402 E2.17141
G1 X-12.782 Y-61.402 E.03543
G1 X14.022 Y-34.598 E2.17141
G1 X13.403 Y-34.598 E.03543
G1 X-13.401 Y-61.402 E2.17141
G1 X-14.02 Y-61.402 E.03543
G1 X12.785 Y-34.598 E2.17141
G1 X12.166 Y-34.598 E.03543
G1 X-14.638 Y-61.402 E2.17141
G1 X-15.257 Y-61.402 E.03543
G1 X11.547 Y-34.598 E2.17141
G1 X10.929 Y-34.598 E.03543
G1 X-15.875 Y-61.402 E2.17141
G1 X-16.494 Y-61.402 E.03543
G1 X10.31 Y-34.598 E2.17141
G1 X9.692 Y-34.598 E.03543
G1 X-17.113 Y-61.402 E2.17141
G1 X-17.731 Y-61.402 E.03543
G1 X9.073 Y-34.598 E2.17141
G1 X8.454 Y-34.598 E.03543
G1 X-18.35 Y-61.402 E2.17141
G1 X-18.968 Y-61.402 E.03543
G1 X7.836 Y-34.598 E2.17141
G1 X7.217 Y-34.598 E.03543
G1 X-19.587 Y-61.402 E2.17141
G1 X-19.874 Y-61.402 E.01645
G1 X-19.874 Y-61.071 E.01899
G1 X6.599 Y-34.598 E2.14456
G1 X5.98 Y-34.598 E.03543
G1 X-20.052 Y-60.63 E2.10888
G1 X-20.092 Y-60.63 E.00227
G1 X-20.092 Y-60.051 E.03316
G1 X5.362 Y-34.598 E2.06198
G1 X4.743 Y-34.598 E.03543
G1 X-20.092 Y-59.433 E2.01187
M73 P2 R49
G1 X-20.092 Y-58.814 E.03543
G1 X4.124 Y-34.598 E1.96176
G1 X3.506 Y-34.598 E.03543
G1 X-20.092 Y-58.195 E1.91164
G1 X-20.092 Y-57.577 E.03543
G1 X2.887 Y-34.598 E1.86153
G1 X2.269 Y-34.598 E.03543
G1 X-20.092 Y-56.958 E1.81142
G1 X-20.092 Y-56.34 E.03543
G1 X1.65 Y-34.598 E1.76131
G1 X1.031 Y-34.598 E.03543
G1 X-20.092 Y-55.721 E1.7112
G1 X-20.092 Y-55.103 E.03543
G1 X.413 Y-34.598 E1.66109
G1 X-.206 Y-34.598 E.03543
G1 X-20.092 Y-54.484 E1.61098
G1 X-20.092 Y-53.865 E.03543
G1 X-.824 Y-34.598 E1.56086
G1 X-1.443 Y-34.598 E.03543
G1 X-20.092 Y-53.247 E1.51075
G1 X-20.092 Y-52.628 E.03543
G1 X-2.061 Y-34.598 E1.46064
G1 X-2.68 Y-34.598 E.03543
G1 X-20.092 Y-52.01 E1.41053
G1 X-20.092 Y-51.391 E.03543
G1 X-3.299 Y-34.598 E1.36042
G1 X-3.917 Y-34.598 E.03543
G1 X-20.092 Y-50.773 E1.31031
G1 X-20.092 Y-50.154 E.03543
G1 X-4.536 Y-34.598 E1.2602
G1 X-5.154 Y-34.598 E.03543
G1 X-20.092 Y-49.535 E1.21008
G1 X-20.092 Y-48.917 E.03543
G1 X-5.773 Y-34.598 E1.15997
G1 X-6.391 Y-34.598 E.03543
G1 X-20.092 Y-48.298 E1.10986
G1 X-20.092 Y-47.68 E.03543
G1 X-7.01 Y-34.598 E1.05975
G1 X-7.629 Y-34.598 E.03543
G1 X-20.092 Y-47.061 E1.00964
G1 X-20.092 Y-46.442 E.03543
G1 X-8.247 Y-34.598 E.95953
G1 X-8.866 Y-34.598 E.03543
G1 X-20.092 Y-45.824 E.90942
G1 X-20.092 Y-45.205 E.03543
G1 X-9.484 Y-34.598 E.85931
G1 X-10.103 Y-34.598 E.03543
G1 X-20.092 Y-44.587 E.80919
G1 X-20.092 Y-43.968 E.03543
G1 X-10.722 Y-34.598 E.75908
G1 X-11.34 Y-34.598 E.03543
G1 X-20.092 Y-43.35 E.70897
G1 X-20.092 Y-42.731 E.03543
G1 X-11.959 Y-34.598 E.65886
G1 X-12.577 Y-34.598 E.03543
G1 X-20.092 Y-42.112 E.60875
G1 X-20.092 Y-41.494 E.03543
G1 X-13.196 Y-34.598 E.55864
G1 X-13.814 Y-34.598 E.03543
G1 X-20.092 Y-40.875 E.50853
G1 X-20.092 Y-40.257 E.03543
G1 X-14.433 Y-34.598 E.45841
G1 X-15.052 Y-34.598 E.03543
G1 X-20.092 Y-39.638 E.4083
G1 X-20.092 Y-39.019 E.03543
M73 P3 R49
G1 X-15.67 Y-34.598 E.35819
G1 X-16.289 Y-34.598 E.03543
G1 X-20.092 Y-38.401 E.30808
G1 X-20.092 Y-37.782 E.03543
G1 X-16.907 Y-34.598 E.25797
G1 X-17.526 Y-34.598 E.03543
G1 X-20.092 Y-37.164 E.20786
G1 X-20.092 Y-36.545 E.03543
G1 X-18.144 Y-34.598 E.15775
G1 X-18.763 Y-34.598 E.03543
G1 X-20.092 Y-35.927 E.10764
G1 X-20.092 Y-35.37 E.03189
G1 X-19.874 Y-35.37 E.01248
G1 X-19.874 Y-35.09 E.01602
G1 X-19.186 Y-34.402 E.05576
G1 E-.8 F2100
;WIPE_START
G1 F4800
G1 X-19.874 Y-35.09
G1 X-19.874 Y-35.37
G1 X-20.092 Y-35.37
G1 X-20.092 Y-35.899
;WIPE_END
G1 X-20.201 Y-34.75 Z.7 F30000
G1 Z.3
G1 E.8 F2100
;TYPE:Gap infill
;WIDTH:0.586285
G1 F3000
G1 X-39.179 Y-34.75 E1.29714
G1 E-.8 F2100
;WIPE_START
G1 F3000
G1 X-37.179 Y-34.75
;WIPE_END
G1 X-37.744 Y-42.361 Z.7 F30000
G1 X-39.092 Y-60.486 Z.7
G1 Z.3
G1 E.8 F2100
;TYPE:Bottom surface
;WIDTH:0.506502
G1 F4800
G1 X-40.008 Y-61.402 E.07502
G1 X-40.592 Y-61.402 E.03381
G1 X-40.592 Y-61.361 E.00239
G1 X-39.288 Y-60.057 E.10679
G1 X-39.288 Y-59.431 E.0362
G1 X-40.592 Y-60.736 E.10679
G1 X-40.592 Y-60.11 E.0362
G1 X-39.288 Y-58.806 E.10679
G1 X-39.288 Y-58.181 E.0362
G1 X-40.592 Y-59.485 E.10679
G1 X-40.592 Y-58.86 E.0362
G1 X-39.288 Y-57.556 E.10679
G1 X-39.288 Y-56.93 E.0362
G1 X-40.592 Y-58.235 E.10679
G1 X-40.592 Y-57.609 E.0362
G1 X-39.288 Y-56.305 E.10679
G1 X-39.288 Y-55.68 E.0362
G1 X-40.592 Y-56.984 E.10679
G1 X-40.592 Y-56.359 E.0362
G1 X-39.288 Y-55.055 E.10679
G1 X-39.288 Y-54.429 E.0362
G1 X-40.592 Y-55.734 E.10679
G1 X-40.592 Y-55.108 E.0362
G1 X-39.288 Y-53.804 E.10679
G1 X-39.288 Y-53.179 E.0362
G1 X-40.592 Y-54.483 E.10679
G1 X-40.592 Y-53.858 E.0362
G1 X-39.288 Y-52.554 E.10679
G1 X-39.288 Y-51.928 E.0362
G1 X-40.592 Y-53.232 E.10679
G1 X-40.592 Y-52.607 E.0362
G1 X-39.288 Y-51.303 E.10679
G1 X-39.288 Y-50.678 E.0362
G1 X-40.592 Y-51.982 E.10679
G1 X-40.592 Y-51.357 E.0362
G1 X-39.288 Y-50.053 E.10679
G1 X-39.288 Y-49.427 E.0362
G1 X-40.592 Y-50.731 E.10679
G1 X-40.592 Y-50.106 E.0362
G1 X-39.288 Y-48.802 E.10679
G1 X-39.288 Y-48.177 E.0362
G1 X-40.592 Y-49.481 E.10679
G1 X-40.592 Y-48.856 E.0362
G1 X-39.288 Y-47.552 E.10679
G1 X-39.288 Y-46.926 E.0362
G1 X-40.592 Y-48.23 E.10679
G1 X-40.592 Y-47.605 E.0362
G1 X-39.288 Y-46.301 E.10679
G1 X-39.288 Y-45.676 E.0362
G1 X-40.592 Y-46.98 E.10679
G1 X-40.592 Y-46.355 E.0362
G1 X-39.288 Y-45.051 E.10679
G1 X-39.288 Y-44.425 E.0362
G1 X-40.592 Y-45.729 E.10679
G1 X-40.592 Y-45.104 E.0362
G1 X-39.288 Y-43.8 E.10679
G1 X-39.288 Y-43.175 E.0362
G1 X-40.592 Y-44.479 E.10679
G1 X-40.592 Y-43.854 E.0362
G1 X-39.288 Y-42.55 E.10679
G1 X-39.288 Y-41.924 E.0362
G1 X-40.592 Y-43.228 E.10679
G1 X-40.592 Y-42.603 E.0362
G1 X-39.288 Y-41.299 E.10679
G1 X-39.288 Y-40.674 E.0362
G1 X-40.592 Y-41.978 E.10679
G1 X-40.592 Y-41.353 E.0362
G1 X-39.288 Y-40.049 E.10679
G1 X-39.288 Y-39.423 E.0362
G1 X-40.592 Y-40.727 E.10679
G1 X-40.592 Y-40.102 E.0362
G1 X-39.288 Y-38.798 E.10679
G1 X-39.288 Y-38.173 E.0362
G1 X-40.592 Y-39.477 E.10679
G1 X-40.592 Y-38.852 E.0362
G1 X-39.288 Y-37.548 E.10679
G1 X-39.288 Y-36.922 E.0362
G1 X-40.592 Y-38.226 E.10679
G1 X-40.592 Y-37.601 E.0362
G1 X-39.288 Y-36.297 E.10679
G1 X-39.288 Y-35.672 E.0362
G1 X-40.592 Y-36.976 E.10679
G1 X-40.592 Y-36.351 E.0362
G1 X-39.505 Y-35.264 E.08895
G1 X-39.505 Y-34.639 E.0362
G1 X-40.592 Y-35.725 E.08895
G1 X-40.592 Y-35.1 E.0362
G1 X-39.893 Y-34.402 E.05717
G1 E-.8 F2100
;WIPE_START
G1 F4800
G1 X-40.592 Y-35.1
G1 X-40.592 Y-35.725
G1 X-40.318 Y-35.452
;WIPE_END
G1 X-39.981 Y-43.077 Z.7 F30000
G1 X-39.179 Y-61.25 Z.7
G1 Z.3
G1 E.8 F2100
;TYPE:Gap infill
;WIDTH:0.586287
G1 F3000
G1 X-20.201 Y-61.25 E1.29715
G1 E-.8 F2100
;WIPE_START
G1 F3000
G1 X-22.201 Y-61.25
;WIPE_END
G1 X-14.568 Y-61.25 Z.7 F30000
G1 X20.821 Y-61.25 Z.7
G1 Z.3
G1 E.8 F2100
G1 F3000
G1 X39.799 Y-61.25 E1.29715
G1 X40.514 Y-61.598 F30000
;TYPE:Bottom surface
;WIDTH:0.506502
G1 F4800
G1 X41.212 Y-60.9 E.05718
G1 X41.212 Y-60.274 E.0362
G1 X40.126 Y-61.361 E.08895
G1 X40.126 Y-60.736 E.0362
G1 X41.212 Y-59.649 E.08895
G1 X41.212 Y-59.024 E.0362
G1 X39.908 Y-60.328 E.10679
G1 X39.908 Y-59.703 E.0362
G1 X41.212 Y-58.399 E.10679
G1 X41.212 Y-57.773 E.0362
G1 X39.908 Y-59.078 E.10679
G1 X39.908 Y-58.452 E.0362
G1 X41.212 Y-57.148 E.10679
G1 X41.212 Y-56.523 E.0362
G1 X39.908 Y-57.827 E.10679
G1 X39.908 Y-57.202 E.0362
G1 X41.212 Y-55.898 E.10679
G1 X41.212 Y-55.272 E.0362
G1 X39.908 Y-56.577 E.10679
G1 X39.908 Y-55.951 E.0362
G1 X41.212 Y-54.647 E.10679
G1 X41.212 Y-54.022 E.0362
G1 X39.908 Y-55.326 E.10679
G1 X39.908 Y-54.701 E.0362
G1 X41.212 Y-53.397 E.10679
G1 X41.212 Y-52.771 E.0362
G1 X39.908 Y-54.076 E.10679
G1 X39.908 Y-53.45 E.0362
G1 X41.212 Y-52.146 E.10679
G1 X41.212 Y-51.521 E.0362
G1 X39.908 Y-52.825 E.10679
G1 X39.908 Y-52.2 E.0362
G1 X41.212 Y-50.896 E.10679
G1 X41.212 Y-50.27 E.0362
G1 X39.908 Y-51.575 E.10679
G1 X39.908 Y-50.949 E.0362
G1 X41.212 Y-49.645 E.10679
G1 X41.212 Y-49.02 E.0362
G1 X39.908 Y-50.324 E.10679
G1 X39.908 Y-49.699 E.0362
G1 X41.212 Y-48.395 E.10679
G1 X41.212 Y-47.769 E.0362
G1 X39.908 Y-49.074 E.10679
G1 X39.908 Y-48.448 E.0362
G1 X41.212 Y-47.144 E.10679
G1 X41.212 Y-46.519 E.0362
G1 X39.908 Y-47.823 E.10679
G1 X39.908 Y-47.198 E.0362
G1 X41.212 Y-45.894 E.10679
G1 X41.212 Y-45.268 E.0362
G1 X39.908 Y-46.573 E.10679
G1 X39.908 Y-45.947 E.0362
G1 X41.212 Y-44.643 E.10679
G1 X41.212 Y-44.018 E.0362
G1 X39.908 Y-45.322 E.10679
G1 X39.908 Y-44.697 E.0362
G1 X41.212 Y-43.393 E.10679
G1 X41.212 Y-42.767 E.0362
G1 X39.908 Y-44.071 E.10679
G1 X39.908 Y-43.446 E.0362
G1 X41.212 Y-42.142 E.10679
G1 X41.212 Y-41.517 E.0362
G1 X39.908 Y-42.821 E.10679
G1 X39.908 Y-42.196 E.0362
G1 X41.212 Y-40.892 E.10679
G1 X41.212 Y-40.266 E.0362
G1 X39.908 Y-41.57 E.10679
G1 X39.908 Y-40.945 E.0362
G1 X41.212 Y-39.641 E.10679
G1 X41.212 Y-39.016 E.0362
G1 X39.908 Y-40.32 E.10679
G1 X39.908 Y-39.695 E.0362
G1 X41.212 Y-38.391 E.10679
G1 X41.212 Y-37.765 E.0362
G1 X39.908 Y-39.069 E.10679
G1 X39.908 Y-38.444 E.0362
G1 X41.212 Y-37.14 E.10679
G1 X41.212 Y-36.515 E.0362
G1 X39.908 Y-37.819 E.10679
G1 X39.908 Y-37.194 E.0362
