; HEADER_BLOCK_START
; generated by OrcaSlicer 2.3.0 on 2026-05-05 at 11:37:52
; total layer number: 250
;_GP_TOTAL_LAYER_NUMBER_PLACEHOLDER
; filament_density: 1.27
; filament_diameter: 1.75
; max_z_height: 70.02
; HEADER_BLOCK_END

; THUMBNAIL_BLOCK_START

;
; THUMBNAIL_BLOCK_END

; external perimeters extrusion width = 0.40mm
; perimeters extrusion width = 0.42mm
; infill extrusion width = 0.42mm
; solid infill extrusion width = 0.42mm
; top infill extrusion width = 0.40mm
; first layer extrusion width = 0.50mm

; EXECUTABLE_BLOCK_START
M73 P0 R48
M106 S0
M106 P2 S0
;TYPE:Custom
M190 S70
M104 S260
G90
M83
G1 Z5 F6000
G1 E-0.2 F800
G1 X110 Y-110 F6000
G1 E2 F800
G1 Y-110 X55 Z0.25 F4800
G1 X-55 E8 F2400
G1 Y-109.6 F2400
G1 X55 E5 F2400
G1 Y-110 X55 Z0.45 F4800
G1 X-55 E8 F2400
G1 Y-109.6 F2400
G1 X55 E5 F2400
G92 E0
G90
G21
M83 ; use relative distances for extrusion
; filament start gcode 
;right_extruder_material:PETG
SET_PRESSURE_ADVANCE ADVANCE=0.046; Override pressure advance value
M106 S0
M106 P2 S0
;LAYER_CHANGE
;Z:0.3
;HEIGHT:0.3
;BEFORE_LAYER_CHANGE
;0.3
G1 E-.8 F2100
;AFTER_LAYER_CHANGE
;0.3
;_SET_FAN_SPEED_CHANGING_LAYER
M104 S260 ; set nozzle temperature
SET_VELOCITY_LIMIT ACCEL=500
G1 X.001 Y-8.888 F30000
G1 Z.7
G1 Z.3
G1 E.8 F2100
;TYPE:Brim
;WIDTH:0.5
G1 F3000
G1 X17.9 Y-8.887 E.97254
G1 X18.623 Y-8.844 E.03934
G1 X19.172 Y-8.77 E.03012
G1 X19.918 Y-8.581 E.04179
G1 X20.49 Y-8.329 E.03396
G1 X21.019 Y-7.993 E.03404
G1 X21.491 Y-7.581 E.03404
G1 X21.895 Y-7.103 E.03404
G1 X22.223 Y-6.569 E.03404
G1 X22.466 Y-5.992 E.03404
G1 X22.619 Y-5.385 E.03398
G1 X22.681 Y-4.669 E.03907
G1 X22.681 Y4.67 E.5074
G1 X22.633 Y5.303 E.03449
G1 X22.492 Y5.913 E.03404
G1 X22.26 Y6.495 E.03404
G1 X21.943 Y7.036 E.03404
G1 X21.548 Y7.522 E.03404
G1 X21.084 Y7.943 E.03404
G1 X20.562 Y8.289 E.03404
G1 X19.996 Y8.552 E.0339
G1 X19.173 Y8.77 E.04631
G1 X18.436 Y8.861 E.04034
G1 X17.78 Y8.888 E.03567
G1 X-12.606 Y8.888 E1.65096
G1 X-13.239 Y8.84 E.03449
M73 P0 R47
G1 X-13.85 Y8.699 E.03404
G1 X-14.432 Y8.467 E.03404
G1 X-14.972 Y8.151 E.03404
G1 X-15.458 Y7.756 E.03404
G1 X-15.879 Y7.292 E.03404
G1 X-16.226 Y6.77 E.03404
G1 X-16.489 Y6.201 E.03404
G1 X-16.663 Y5.603 E.03387
G1 X-16.753 Y4.739 E.0472
G1 X-16.753 Y-4.742 E.5151
G1 X-16.705 Y-5.375 E.03449
G1 X-16.564 Y-5.985 E.03404
G1 X-16.332 Y-6.567 E.03404
G1 X-16.015 Y-7.107 E.03404
G1 X-15.62 Y-7.594 E.03404
G1 X-15.156 Y-8.015 E.03404
G1 X-14.634 Y-8.361 E.03404
G1 X-14.066 Y-8.625 E.03404
G1 X-13.467 Y-8.799 E.03387
G1 X-12.603 Y-8.888 E.0472
G1 X-.039 Y-8.888 E.68262
G1 X-.04 Y-8.452 F30000
G1 F3000
G1 X17.884 Y-8.451 E.97381
G1 X18.576 Y-8.411 E.0377
G1 X19.082 Y-8.343 E.02772
G1 X19.765 Y-8.17 E.03829
G1 X20.275 Y-7.948 E.03025
G1 X20.749 Y-7.649 E.03044
G1 X21.186 Y-7.267 E.03151
G1 X21.547 Y-6.839 E.03044
G1 X21.829 Y-6.378 E.02937
G1 X22.048 Y-5.862 E.03044
G1 X22.189 Y-5.302 E.03137
G1 X22.245 Y-4.645 E.03587
G1 X22.245 Y4.648 E.50492
G1 X22.199 Y5.247 E.0326
G1 X22.077 Y5.773 E.02937
G1 X21.871 Y6.294 E.03044
G1 X21.578 Y6.794 E.03151
G1 X21.224 Y7.228 E.03044
G1 X20.823 Y7.592 E.02937
G1 X20.357 Y7.903 E.03044
G1 X19.858 Y8.136 E.02993
G1 X19.081 Y8.343 E.04371
G1 X18.405 Y8.426 E.03698
G1 X17.768 Y8.453 E.03465
G1 X-12.595 Y8.452 E1.64969
G1 X-13.163 Y8.409 E.03099
G1 X-13.709 Y8.284 E.03044
G1 X-14.231 Y8.079 E.03044
G1 X-14.715 Y7.796 E.03044
G1 X-15.15 Y7.445 E.03044
G1 X-15.528 Y7.031 E.03044
G1 X-15.839 Y6.565 E.03044
G1 X-16.076 Y6.057 E.03044
G1 X-16.235 Y5.507 E.03111
G1 X-16.317 Y4.709 E.04357
G1 X-16.317 Y-4.72 E.51234
G1 X-16.274 Y-5.299 E.03152
G1 X-16.149 Y-5.845 E.03044
G1 X-15.943 Y-6.366 E.03044
G1 X-15.65 Y-6.866 E.03151
G1 X-15.295 Y-7.3 E.03044
G1 X-14.895 Y-7.664 E.02937
G1 X-14.429 Y-7.975 E.03044
G1 X-13.922 Y-8.212 E.03044
G1 X-13.372 Y-8.371 E.03111
G1 X-12.574 Y-8.453 E.04357
G1 X-.08 Y-8.452 E.67886
G1 X-.08 Y-8.016 F30000
G1 F3000
G1 X17.867 Y-8.015 E.97509
G1 X18.53 Y-7.977 E.03607
G1 X18.992 Y-7.916 E.02532
G1 X19.613 Y-7.759 E.03482
G1 X20.062 Y-7.565 E.02654
G1 X20.48 Y-7.304 E.02679
G1 X20.867 Y-6.968 E.02785
G1 X21.197 Y-6.575 E.02791
G1 X21.445 Y-6.169 E.02583
G1 X21.63 Y-5.732 E.02576
G1 X21.759 Y-5.22 E.02873
G1 X21.81 Y-4.62 E.03267
G1 X21.81 Y4.626 E.50242
G1 X21.765 Y5.19 E.0307
G1 X21.656 Y5.652 E.02582
G1 X21.482 Y6.093 E.02577
G1 X21.213 Y6.553 E.02894
G1 X20.913 Y6.92 E.02577
G1 X20.562 Y7.241 E.02583
G1 X20.151 Y7.517 E.02686
G1 X19.719 Y7.72 E.02594
G1 X18.989 Y7.915 E.04109
G1 X18.375 Y7.991 E.03362
G1 X17.756 Y8.017 E.03363
G1 X-12.583 Y8.016 E1.64842
G1 X-13.088 Y7.978 E.02753
G1 X-13.571 Y7.869 E.02686
G1 X-14.03 Y7.689 E.02684
G1 X-14.458 Y7.442 E.02684
G1 X-14.843 Y7.133 E.02684
G1 X-15.177 Y6.769 E.02684
G1 X-15.453 Y6.359 E.02684
G1 X-15.663 Y5.913 E.02678
G1 X-15.807 Y5.412 E.02832
G1 X-15.882 Y4.68 E.03996
G1 X-15.882 Y-4.699 E.50961
G1 X-15.843 Y-5.224 E.0286
G1 X-15.734 Y-5.706 E.02686
G1 X-15.554 Y-6.165 E.0268
G1 X-15.285 Y-6.625 E.02894
G1 X-14.971 Y-7.006 E.02682
G1 X-14.618 Y-7.325 E.02583
G1 X-14.223 Y-7.588 E.02581
G1 X-13.777 Y-7.798 E.02678
G1 X-13.277 Y-7.943 E.02832
G1 X-12.545 Y-8.017 E.03996
G1 X-.12 Y-8.016 E.67511
G1 X-.12 Y-7.581 F30000
G1 F3000
G1 X17.851 Y-7.58 E.97638
G1 X18.484 Y-7.543 E.03445
G1 X18.902 Y-7.488 E.02294
G1 X19.463 Y-7.348 E.03139
G1 X19.849 Y-7.183 E.02285
G1 X20.211 Y-6.958 E.02314
G1 X20.562 Y-6.653 E.02525
G1 X20.848 Y-6.311 E.02422
G1 X21.051 Y-5.977 E.02124
G1 X21.212 Y-5.603 E.02216
G1 X21.329 Y-5.137 E.02608
G1 X21.374 Y-4.597 E.02946
G1 X21.374 Y4.604 E.49989
G1 X21.334 Y5.113 E.02772
G1 X21.242 Y5.513 E.02231
G1 X21.093 Y5.893 E.02217
G1 X20.848 Y6.311 E.02636
G1 X20.588 Y6.627 E.02217
G1 X20.284 Y6.903 E.02234
G1 X19.944 Y7.131 E.02223
G1 X19.58 Y7.304 E.02192
G1 X18.896 Y7.488 E.03844
G1 X18.333 Y7.557 E.03082
G1 X17.744 Y7.582 E.03204
G1 X-12.572 Y7.58 E1.64714
G1 X-13.014 Y7.547 E.02411
G1 X-13.433 Y7.454 E.02331
G1 X-13.832 Y7.299 E.02324
G1 X-14.203 Y7.086 E.02324
G1 X-14.537 Y6.82 E.02324
G1 X-14.828 Y6.506 E.02324
G1 X-15.067 Y6.152 E.02324
G1 X-15.249 Y5.768 E.02306
G1 X-15.379 Y5.317 E.02549
G1 X-15.446 Y4.652 E.03635
G1 X-15.446 Y-4.678 E.5069
G1 X-15.411 Y-5.15 E.02571
G1 X-15.318 Y-5.568 E.02329
G1 X-15.165 Y-5.965 E.02311
G1 X-14.92 Y-6.383 E.02631
G1 X-14.662 Y-6.697 E.0221
G1 X-14.357 Y-6.974 E.02234
G1 X-14.017 Y-7.203 E.0223
G1 X-13.633 Y-7.385 E.02309
G1 X-13.182 Y-7.514 E.02549
G1 X-12.516 Y-7.582 E.03635
G1 X-.16 Y-7.581 E.67137
G1 X-.16 Y-7.145 F30000
G1 F3000
G1 X17.834 Y-7.144 E.97766
G1 X18.438 Y-7.11 E.03284
G1 X18.813 Y-7.06 E.02057
G1 X19.313 Y-6.936 E.028
G1 X19.638 Y-6.799 E.01917
G1 X19.943 Y-6.611 E.01943
G1 X20.242 Y-6.354 E.02146
G1 X20.498 Y-6.048 E.02164
G1 X20.667 Y-5.769 E.01776
G1 X20.794 Y-5.472 E.01752
G1 X20.899 Y-5.055 E.02339
G1 X20.939 Y-4.573 E.02626
G1 X20.939 Y4.582 E.4974
G1 X20.903 Y5.036 E.02478
G1 X20.827 Y5.374 E.01883
G1 X20.704 Y5.692 E.01853
G1 X20.483 Y6.069 E.02373
G1 X20.265 Y6.332 E.01853
G1 X20.022 Y6.552 E.01785
G1 X19.736 Y6.746 E.01875
G1 X19.439 Y6.889 E.01789
G1 X18.804 Y7.06 E.03576
G1 X18.292 Y7.122 E.02799
G1 X17.732 Y7.146 E.03046
G1 X-12.55 Y7.145 E1.64533
G1 X-12.941 Y7.116 E.02128
G1 X-13.297 Y7.038 E.01979
G1 X-13.634 Y6.909 E.01964
G1 X-13.948 Y6.73 E.01964
G1 X-14.232 Y6.506 E.01964
G1 X-14.479 Y6.242 E.01964
G1 X-14.682 Y5.943 E.01964
G1 X-14.836 Y5.623 E.01927
G1 X-14.951 Y5.223 E.02263
G1 X-15.01 Y4.623 E.03276
G1 X-15.01 Y-4.657 E.50421
G1 X-14.98 Y-5.077 E.02287
G1 X-14.902 Y-5.432 E.01976
G1 X-14.775 Y-5.765 E.01937
G1 X-14.555 Y-6.141 E.02366
G1 X-14.338 Y-6.402 E.01846
G1 X-14.08 Y-6.635 E.01888
G1 X-13.792 Y-6.827 E.01882
G1 X-13.488 Y-6.971 E.01828
G1 X-13.087 Y-7.086 E.02263
G1 X-12.488 Y-7.146 E.03275
G1 X-.2 Y-7.145 E.66764
G1 X-.2 Y-6.71 F30000
G1 F3000
G1 X17.77 Y-6.71 E.97633
G1 X18.448 Y-6.671 E.03689
G1 X18.78 Y-6.624 E.01822
G1 X19.115 Y-6.539 E.0188
G1 X19.662 Y-6.264 E.03327
G1 X19.76 Y-6.195 E.00652
G1 X20.003 Y-5.964 E.01819
G1 X20.175 Y-5.724 E.01609
G1 X20.374 Y-5.303 E.02529
G1 X20.485 Y-4.825 E.02664
G1 X20.503 Y4.635 E.514
G1 X20.405 Y5.229 E.03272
G1 X20.371 Y5.34 E.00632
G1 X20.216 Y5.668 E.01969
G1 X20.002 Y5.961 E.01974
G1 X19.687 Y6.241 E.02289
G1 X19.394 Y6.419 E.01861
G1 X19.155 Y6.524 E.01417
G1 X18.77 Y6.626 E.02164
G1 X18.302 Y6.685 E.02561
G1 X17.859 Y6.708 E.02414
G1 X-12.57 Y6.71 E1.65329
G1 X-13.275 Y6.579 E.03893
G1 X-13.502 Y6.48 E.01349
G1 X-13.782 Y6.308 E.01783
G1 X-13.979 Y6.138 E.01414
G1 X-14.183 Y5.896 E.01719
G1 X-14.372 Y5.564 E.02074
G1 X-14.443 Y5.387 E.01039
G1 X-14.564 Y4.807 E.0322
G1 X-14.575 Y-4.703 E.5167
G1 X-14.482 Y-5.264 E.03091
G1 X-14.38 Y-5.563 E.01715
G1 X-14.231 Y-5.835 E.01686
G1 X-14.002 Y-6.114 E.01959
G1 X-13.683 Y-6.369 E.02219
G1 X-13.358 Y-6.54 E.01995
G1 X-13.173 Y-6.601 E.0106
G1 X-12.564 Y-6.71 E.03362
G1 X-.24 Y-6.71 E.6696
G1 X-.24 Y-6.275 F30000
G1 F3000
G1 X17.774 Y-6.275 E.97871
G1 X18.382 Y-6.24 E.0331
G1 X18.726 Y-6.192 E.0189
G1 X19.014 Y-6.115 E.01621
G1 X19.463 Y-5.876 E.02761
G1 X19.657 Y-5.701 E.01419
G1 X19.776 Y-5.548 E.01053
G1 X19.986 Y-5.104 E.02668
G1 X20.061 Y-4.729 E.02078
G1 X20.067 Y4.646 E.50939
G1 X19.975 Y5.159 E.0283
M73 P1 R47
G1 X19.861 Y5.417 E.01537
G1 X19.712 Y5.636 E.01438
G1 X19.471 Y5.863 E.01797
G1 X19.16 Y6.051 E.01972
G1 X19.046 Y6.102 E.00681
G1 X18.722 Y6.193 E.01829
G1 X18.285 Y6.25 E.02394
G1 X17.833 Y6.273 E.02459
G1 X-12.582 Y6.275 E1.65254
G1 X-13.096 Y6.182 E.02839
G1 X-13.28 Y6.106 E.01077
G1 X-13.489 Y5.985 E.01315
G1 X-13.702 Y5.801 E.01528
G1 X-13.846 Y5.619 E.0126
G1 X-13.993 Y5.35 E.01665
G1 X-14.037 Y5.231 E.00693
G1 X-14.139 Y4.711 E.02879
G1 X-14.139 Y-4.714 E.51206
G1 X-14.052 Y-5.195 E.02658
G1 X-13.969 Y-5.419 E.01296
G1 X-13.849 Y-5.625 E.01293
G1 X-13.666 Y-5.838 E.01528
G1 X-13.484 Y-5.982 E.0126
G1 X-13.215 Y-6.128 E.01665
G1 X-13.095 Y-6.172 E.00693
G1 X-12.575 Y-6.275 E.02879
G1 X-.28 Y-6.275 E.66806
G1 X-.28 Y-5.839 F30000
G1 F3000
G1 X17.777 Y-5.839 E.98108
G1 X18.316 Y-5.81 E.02931
G1 X18.674 Y-5.76 E.01963
G1 X18.907 Y-5.693 E.01317
G1 X19.178 Y-5.547 E.01672
G1 X19.307 Y-5.441 E.00909
G1 X19.439 Y-5.273 E.0116
G1 X19.591 Y-4.919 E.02091
G1 X19.632 Y-4.656 E.01449
G1 X19.632 Y4.656 E.50594
G1 X19.575 Y4.987 E.01824
G1 X19.493 Y5.185 E.01164
G1 X19.404 Y5.329 E.00923
G1 X19.256 Y5.483 E.0116
G1 X18.927 Y5.683 E.02091
G1 X18.672 Y5.76 E.01447
G1 X18.267 Y5.814 E.0222
G1 X17.807 Y5.838 E.02505
G1 X-12.592 Y5.839 E1.65167
G1 X-12.923 Y5.782 E.01824
G1 X-13.121 Y5.7 E.01164
G1 X-13.269 Y5.609 E.00943
G1 X-13.412 Y5.477 E.01061
G1 X-13.497 Y5.359 E.00787
G1 X-13.61 Y5.143 E.01329
G1 X-13.704 Y4.723 E.02333
G1 X-13.704 Y-4.726 E.51339
G1 X-13.623 Y-5.116 E.02165
G1 X-13.565 Y-5.256 E.00826
G1 X-13.474 Y-5.404 E.00945
G1 X-13.341 Y-5.548 E.01061
G1 X-13.224 Y-5.633 E.00787
G1 X-13.007 Y-5.746 E.01329
G1 X-12.588 Y-5.839 E.02333
G1 X-.32 Y-5.839 E.66658
G1 X-.32 Y-5.403 F30000
G1 F3000
G1 X17.781 Y-5.403 E.98345
G1 X18.25 Y-5.379 E.02553
G1 X18.622 Y-5.327 E.02043
G1 X18.784 Y-5.275 E.00921
G1 X18.891 Y-5.22 E.00655
G1 X19.041 Y-5.096 E.01056
G1 X19.162 Y-4.844 E.01517
G1 X19.196 Y-4.666 E.00987
G1 X19.196 Y4.667 E.50709
G1 X19.167 Y4.834 E.00921
G1 X19.127 Y4.948 E.00655
G1 X19.025 Y5.113 E.01056
G1 X18.793 Y5.269 E.01517
G1 X18.621 Y5.327 E.00987
G1 X18.25 Y5.379 E.02036
G1 X17.781 Y5.403 E.02553
G1 X-12.603 Y5.403 E1.65086
G1 X-12.77 Y5.375 E.00921
G1 X-12.884 Y5.334 E.00655
G1 X-13.052 Y5.231 E.0107
G1 X-13.15 Y5.096 E.00909
G1 X-13.219 Y4.951 E.00875
G1 X-13.268 Y4.735 E.01199
G1 X-13.268 Y-4.739 E.51476
G1 X-13.199 Y-5.02 E.0157
G1 X-13.096 Y-5.187 E.0107
G1 X-12.96 Y-5.285 E.00909
G1 X-12.815 Y-5.355 E.00875
G1 X-12.6 Y-5.403 E.01199
G1 X-.36 Y-5.403 E.66505
G1 X-.36 Y-4.968 F30000
G1 F3000
G1 X17.784 Y-4.968 E.9858
G1 X18.184 Y-4.948 E.02174
G1 X18.573 Y-4.894 E.02134
G1 X18.702 Y-4.827 E.0079
G1 X18.76 Y-4.678 E.00868
G1 X18.76 Y4.678 E.50836
G1 X18.712 Y4.815 E.0079
G1 X18.573 Y4.894 E.00868
G1 X18.184 Y4.948 E.02134
G1 X17.784 Y4.968 E.02174
G1 X-12.615 Y4.968 E1.65165
G1 X-12.752 Y4.919 E.0079
G1 X-12.832 Y4.75 E.01019
G1 X-12.832 Y-4.75 E.51616
G1 X-12.784 Y-4.887 E.0079
G1 X-12.615 Y-4.968 E.01019
G1 X-.4 Y-4.968 E.66367
G1 E-.8 F2100
;WIPE_START
G1 F3000
G1 X1.6 Y-4.968
;WIPE_END
G1 X9.227 Y-4.677 Z.7 F30000
G1 X17.885 Y-4.347 Z.7
G1 Z.3
G1 E.8 F2100
;TYPE:Outer wall
G1 F3000
G1 X18.143 Y-4.325 E.01407
G1 X18.143 Y4.322 E.4698
G1 X17.772 Y4.35 E.02019
G1 X-12.215 Y4.35 E1.62926
G1 X-12.215 Y-4.35 E.47269
G1 X17.845 Y-4.347 E1.63319
G1 X17.707 Y-3.911 F30000
;TYPE:Inner wall
G1 F3000
G1 X17.707 Y3.914 E.42519
G1 X-11.779 Y3.914 E1.60205
G1 X-11.779 Y-3.914 E.42536
G1 X17.667 Y-3.911 E1.59988
G1 X17.271 Y-3.476 F30000
G1 F3000
G1 X17.271 Y3.479 E.37785
G1 X-11.343 Y3.479 E1.55472
G1 X-11.343 Y-3.479 E.37802
G1 X17.231 Y-3.476 E1.55254
G1 X16.26 Y-3.345 F30000
;TYPE:Bottom surface
;WIDTH:0.500225
G1 F4800
G1 X16.945 Y-2.66 E.05267
G1 X16.945 Y-2.044 E.03351
G1 X15.839 Y-3.149 E.08499
G1 X15.223 Y-3.149 E.03351
G1 X16.945 Y-1.427 E.13238
G1 X16.945 Y-.811 E.03351
G1 X14.606 Y-3.149 E.17977
G1 X13.99 Y-3.149 E.03351
G1 X16.945 Y-.194 E.22716
G1 X16.945 Y.422 E.03351
G1 X13.373 Y-3.149 E.27455
G1 X12.757 Y-3.149 E.03351
G1 X16.945 Y1.038 E.32194
G1 X16.945 Y1.655 E.03351
G1 X12.14 Y-3.149 E.36934
G1 X11.524 Y-3.15 E.03351
G1 X16.945 Y2.271 E.41673
G1 X16.945 Y2.887 E.03351
G1 X10.908 Y-3.15 E.46412
G1 X10.291 Y-3.15 E.03351
G1 X16.593 Y3.152 E.48446
G1 X15.977 Y3.152 E.03351
G1 X9.675 Y-3.15 E.48447
G1 X9.058 Y-3.15 E.03351
G1 X15.36 Y3.152 E.48447
G1 X14.744 Y3.152 E.03351
G1 X8.442 Y-3.15 E.48448
G1 X7.825 Y-3.15 E.03351
G1 X14.127 Y3.152 E.48448
G1 X13.511 Y3.152 E.03351
G1 X7.209 Y-3.15 E.48449
G1 X6.593 Y-3.15 E.03351
G1 X12.895 Y3.152 E.48449
G1 X12.278 Y3.152 E.03351
G1 X5.976 Y-3.15 E.4845
G1 X5.36 Y-3.15 E.03351
G1 X11.662 Y3.152 E.4845
G1 X11.045 Y3.152 E.03351
G1 X4.743 Y-3.15 E.48451
G1 X4.127 Y-3.15 E.03351
G1 X10.429 Y3.152 E.48451
G1 X9.813 Y3.152 E.03351
G1 X3.51 Y-3.15 E.48452
G1 X2.894 Y-3.15 E.03351
G1 X9.196 Y3.152 E.48452
G1 X8.58 Y3.152 E.03351
G1 X2.277 Y-3.151 E.48453
G1 X1.661 Y-3.151 E.03351
G1 X7.964 Y3.152 E.48453
G1 X7.347 Y3.152 E.03351
G1 X1.045 Y-3.151 E.48454
G1 X.428 Y-3.151 E.03351
G1 X6.731 Y3.152 E.48454
G1 X6.114 Y3.152 E.03351
G1 X-.188 Y-3.151 E.48455
G1 X-.805 Y-3.151 E.03351
G1 X5.498 Y3.152 E.48455
G1 X4.882 Y3.152 E.03351
G1 X-1.421 Y-3.151 E.48456
G1 X-2.038 Y-3.151 E.03351
G1 X4.265 Y3.152 E.48456
G1 X3.649 Y3.152 E.03351
G1 X-2.654 Y-3.151 E.48457
G1 X-3.271 Y-3.151 E.03351
G1 X3.033 Y3.152 E.48457
G1 X2.416 Y3.152 E.03351
G1 X-3.887 Y-3.151 E.48458
G1 X-4.503 Y-3.151 E.03351
G1 X1.8 Y3.152 E.48458
G1 X1.183 Y3.152 E.03351
G1 X-5.12 Y-3.151 E.48459
G1 X-5.736 Y-3.151 E.03351
G1 X.567 Y3.152 E.48459
G1 X-.049 Y3.152 E.03351
G1 X-6.353 Y-3.151 E.4846
G1 X-6.969 Y-3.151 E.03351
G1 X-.666 Y3.152 E.4846
G1 X-1.282 Y3.152 E.03351
G1 X-7.586 Y-3.152 E.48461
G1 X-8.202 Y-3.152 E.03351
G1 X-1.898 Y3.152 E.48461
G1 X-2.515 Y3.152 E.03351
G1 X-8.819 Y-3.152 E.48462
G1 X-9.435 Y-3.152 E.03351
G1 X-3.131 Y3.152 E.48462
G1 X-3.748 Y3.152 E.03351
G1 X-10.051 Y-3.152 E.48463
G1 X-10.668 Y-3.152 E.03351
G1 X-4.364 Y3.152 E.48463
G1 X-4.98 Y3.152 E.03351
G1 X-11.017 Y-2.884 E.46406
G1 X-11.017 Y-2.268 E.03351
G1 X-5.597 Y3.152 E.41667
G1 X-6.213 Y3.152 E.03351
G1 X-11.017 Y-1.651 E.36928
G1 X-11.017 Y-1.035 E.03351
G1 X-6.829 Y3.152 E.3219
G1 X-7.446 Y3.152 E.03351
G1 X-11.017 Y-.419 E.27451
G1 X-11.017 Y.198 E.03351
G1 X-8.062 Y3.152 E.22713
G1 X-8.679 Y3.152 E.03351
G1 X-11.017 Y.814 E.17974
G1 X-11.017 Y1.43 E.03351
G1 X-9.295 Y3.152 E.13236
G1 X-9.911 Y3.152 E.03351
G1 X-11.017 Y2.047 E.08497
G1 X-11.017 Y2.663 E.03351
G1 X-10.332 Y3.348 E.05265
M106 S247
M106 P2 S127
;LAYER_CHANGE
;Z:0.58
;HEIGHT:0.28
;BEFORE_LAYER_CHANGE
;0.58
G1 E-.8 F2100
;WIPE_START
G1 F4800
G1 X-11.017 Y2.663
G1 X-11.017 Y2.047
G1 X-10.723 Y2.34
;WIPE_END
;AFTER_LAYER_CHANGE
;0.58
;_SET_FAN_SPEED_CHANGING_LAYER
M104 S260 ; set nozzle temperature
SET_VELOCITY_LIMIT ACCEL=10000
M140 S70 ; set bed temperature
G17
