; HEADER_BLOCK_START
; generated by OrcaSlicer 2.3.0 on 2026-04-16 at 12:07:07
; total layer number: 36
;_GP_TOTAL_LAYER_NUMBER_PLACEHOLDER
; filament_density: 1.24
; filament_diameter: 1.75
; max_z_height: 10.10
; HEADER_BLOCK_END

; THUMBNAIL_BLOCK_START

;
; THUMBNAIL_BLOCK_END

; external perimeters extrusion width = 0.40mm
; perimeters extrusion width = 0.42mm
; infill extrusion width = 0.42mm
; solid infill extrusion width = 0.42mm
; top infill extrusion width = 0.40mm
; support material extrusion width = 0.40mm
; first layer extrusion width = 0.50mm

; EXECUTABLE_BLOCK_START
M73 P0 R14
M106 S0
M106 P2 S0
;TYPE:Custom
M190 S55
M104 S220
G90
M83
G1 Z5 F6000
G1 E-0.2 F800
G1 X110 Y-110 F6000
G1 E2 F800
G1 Y-110 X55 Z0.25 F4800
G1 X-55 E8 F2400
G1 Y-109.6 F2400
G1 X55 E5 F2400
G1 Y-110 X55 Z0.45 F4800
G1 X-55 E8 F2400
G1 Y-109.6 F2400
M73 P1 R14
G1 X55 E5 F2400
G92 E0
G90
G21
M83 ; use relative distances for extrusion
; filament start gcode
;right_extruder_material: PLA
SET_PRESSURE_ADVANCE ADVANCE=0.025; Override pressure advance value
M106 S0
M106 P2 S0
;LAYER_CHANGE
;Z:0.3
;HEIGHT:0.3
;BEFORE_LAYER_CHANGE
;0.3
G1 E-.8 F2100
;AFTER_LAYER_CHANGE
;0.3
;_SET_FAN_SPEED_CHANGING_LAYER
SET_VELOCITY_LIMIT ACCEL=500
G1 X-36.295 Y22.698 F30000
G1 Z.7
G1 Z.3
G1 E.8 F2100
;TYPE:Inner wall
;WIDTH:0.5
G1 F3000
G1 X-36.295 Y-2.302 E1.33115
G1 X39.891 Y-2.302 E4.05663
G1 X39.891 Y22.884 E1.34107
G1 X-36.295 Y22.884 E4.05663
G1 X-36.295 Y22.738 E.00779
M73 P2 R14
G1 X-36.73 Y22.262 F30000
G1 F3000
G1 X-36.73 Y-2.738 E1.33116
G1 X40.327 Y-2.738 E4.10302
G1 X40.327 Y22.262 E1.33116
G1 X50.327 Y22.262 E.53246
G1 X50.327 Y23.319 E.05631
G1 X-46.73 Y23.319 E5.16794
G1 X-46.73 Y22.262 E.05631
G1 X-36.77 Y22.262 E.53033
G1 X-37.166 Y21.826 F30000
G1 F3000
G1 X-37.166 Y-3.174 E1.33116
G1 X40.763 Y-3.174 E4.14941
G1 X40.763 Y21.826 E1.33116
M73 P3 R14
G1 X50.763 Y21.826 E.53246
G1 X50.763 Y23.755 E.1027
G1 X-47.166 Y23.755 E5.21433
G1 X-47.166 Y21.826 E.1027
G1 X-37.206 Y21.826 E.53033
G1 X-37.602 Y21.391 F30000
;TYPE:Outer wall
G1 F3000
G1 X-37.602 Y-3.609 E1.33115
G1 X41.198 Y-3.609 E4.1958
G1 X41.198 Y21.391 E1.33115
G1 X51.198 Y21.391 E.53246
G1 X51.198 Y24.191 E.14909
G1 X-47.602 Y24.191 E5.26072
G1 X-47.602 Y21.391 E.14909
G1 X-37.642 Y21.391 E.53033
G1 E-.8 F2100
M73 P4 R14
;WIPE_START
G1 F3000
G1 X-37.638 Y19.391
;WIPE_END
G1 X-36.513 Y22.791 Z.7 F30000
G1 Z.3
G1 E.8 F2100
;TYPE:Gap infill
;WIDTH:0.686287
G1 F3000
G1 X-46.513 Y22.791 E.76016
G1 E-.8 F2100
;WIPE_START
G1 F3000
G1 X-44.513 Y22.791
;WIPE_END
G1 X-36.88 Y22.791 Z.7 F30000
G1 X40.109 Y22.791 Z.7
G1 Z.3
G1 E.8 F2100
G1 F3000
G1 X50.109 Y22.791 E.76016
G1 E-.8 F2100
;WIPE_START
G1 F3000
G1 X48.109 Y22.791
;WIPE_END
G1 X45.609 Y15.579 Z.7 F30000
G1 X39.761 Y-1.286 Z.7
G1 Z.3
G1 E.8 F2100
;TYPE:Bottom surface
;WIDTH:0.502253
G1 F4800
G1 X39.071 Y-1.976 E.05218
G1 X38.452 Y-1.976 E.03314
G1 X39.565 Y-.863 E.08421
G1 X39.565 Y-.244 E.03314
G1 X37.833 Y-1.976 E.13108
G1 X37.214 Y-1.976 E.03314
G1 X39.565 Y.375 E.17795
G1 X39.565 Y.995 E.03314
G1 X36.594 Y-1.976 E.22482
G1 X35.975 Y-1.976 E.03314
G1 X39.565 Y1.614 E.2717
G1 X39.565 Y2.233 E.03314
G1 X35.356 Y-1.976 E.31857
G1 X34.737 Y-1.976 E.03314
G1 X39.565 Y2.852 E.36544
G1 X39.565 Y3.472 E.03314
G1 X34.117 Y-1.976 E.41231
G1 X33.498 Y-1.976 E.03314
G1 X39.565 Y4.091 E.45918
G1 X39.565 Y4.71 E.03314
G1 X32.879 Y-1.976 E.50605
G1 X32.26 Y-1.976 E.03314
G1 X39.565 Y5.329 E.55292
G1 X39.565 Y5.948 E.03314
G1 X31.64 Y-1.976 E.59979
G1 X31.021 Y-1.976 E.03314
G1 X39.565 Y6.568 E.64667
G1 X39.565 Y7.187 E.03314
G1 X30.402 Y-1.976 E.69354
G1 X29.783 Y-1.976 E.03314
G1 X39.565 Y7.806 E.74041
G1 X39.565 Y8.425 E.03314
G1 X29.164 Y-1.976 E.78728
G1 X28.544 Y-1.976 E.03314
G1 X39.565 Y9.045 E.83415
G1 X39.565 Y9.664 E.03314
G1 X27.925 Y-1.976 E.88102
G1 X27.306 Y-1.976 E.03314
G1 X39.565 Y10.283 E.92789
G1 X39.565 Y10.902 E.03314
G1 X26.687 Y-1.976 E.97476
G1 X26.067 Y-1.976 E.03314
G1 X39.565 Y11.522 E1.02163
G1 X39.565 Y12.141 E.03314
M73 P5 R14
G1 X25.448 Y-1.976 E1.06851
G1 X24.829 Y-1.976 E.03314
G1 X39.565 Y12.76 E1.11538
G1 X39.565 Y13.379 E.03314
G1 X24.21 Y-1.976 E1.16225
G1 X23.59 Y-1.976 E.03314
G1 X39.565 Y13.999 E1.20912
G1 X39.565 Y14.618 E.03314
G1 X22.971 Y-1.976 E1.25599
G1 X22.352 Y-1.976 E.03314
G1 X39.565 Y15.237 E1.30286
G1 X39.565 Y15.856 E.03314
G1 X21.733 Y-1.976 E1.34973
G1 X21.113 Y-1.976 E.03314
G1 X39.565 Y16.476 E1.3966
G1 X39.565 Y17.095 E.03314
G1 X20.494 Y-1.976 E1.44347
G1 X19.875 Y-1.976 E.03314
G1 X39.565 Y17.714 E1.49035
G1 X39.565 Y18.333 E.03314
G1 X19.256 Y-1.976 E1.53722
G1 X18.636 Y-1.976 E.03314
G1 X39.565 Y18.953 E1.58409
G1 X39.565 Y19.572 E.03314
G1 X18.017 Y-1.976 E1.63096
G1 X17.398 Y-1.976 E.03314
G1 X39.565 Y20.191 E1.67783
G1 X39.565 Y20.81 E.03314
G1 X16.779 Y-1.976 E1.7247
G1 X16.159 Y-1.976 E.03314
G1 X39.565 Y21.43 E1.77157
G1 X39.565 Y22.049 E.03314
G1 X15.54 Y-1.976 E1.81844
G1 X14.921 Y-1.976 E.03314
G1 X39.454 Y22.557 E1.85691
G1 X38.835 Y22.557 E.03314
M73 P6 R14
G1 X14.302 Y-1.976 E1.85691
G1 X13.682 Y-1.976 E.03314
G1 X38.215 Y22.557 E1.85691
G1 X37.596 Y22.557 E.03314
G1 X13.063 Y-1.976 E1.85691
G1 X12.444 Y-1.976 E.03314
M73 P6 R13
G1 X36.977 Y22.557 E1.85691
G1 X36.358 Y22.557 E.03314
G1 X11.825 Y-1.976 E1.85691
G1 X11.205 Y-1.976 E.03314
G1 X35.738 Y22.557 E1.85691
G1 X35.119 Y22.557 E.03314
G1 X10.586 Y-1.976 E1.85691
G1 X9.967 Y-1.976 E.03314
G1 X34.5 Y22.557 E1.85691
G1 X33.881 Y22.557 E.03314
G1 X9.348 Y-1.976 E1.85691
G1 X8.728 Y-1.976 E.03314
G1 X33.261 Y22.557 E1.85691
G1 X32.642 Y22.557 E.03314
G1 X8.109 Y-1.976 E1.85691
G1 X7.49 Y-1.976 E.03314
G1 X32.023 Y22.557 E1.85691
G1 X31.404 Y22.557 E.03314
G1 X6.871 Y-1.976 E1.85691
G1 X6.251 Y-1.976 E.03314
G1 X30.784 Y22.557 E1.85691
G1 X30.165 Y22.557 E.03314
M73 P7 R13
G1 X5.632 Y-1.976 E1.85691
G1 X5.013 Y-1.976 E.03314
G1 X29.546 Y22.557 E1.85691
G1 X28.927 Y22.557 E.03314
G1 X4.394 Y-1.976 E1.85691
G1 X3.774 Y-1.976 E.03314
G1 X28.307 Y22.557 E1.85691
G1 X27.688 Y22.557 E.03314
G1 X3.155 Y-1.976 E1.85691
G1 X2.536 Y-1.976 E.03314
G1 X27.069 Y22.557 E1.85691
G1 X26.45 Y22.557 E.03314
G1 X1.917 Y-1.976 E1.85691
G1 X1.298 Y-1.976 E.03314
G1 X25.83 Y22.557 E1.85691
G1 X25.211 Y22.557 E.03314
G1 X.678 Y-1.976 E1.85691
G1 X.059 Y-1.976 E.03314
G1 X24.592 Y22.557 E1.85691
G1 X23.973 Y22.557 E.03314
G1 X-.56 Y-1.976 E1.85691
G1 X-1.179 Y-1.976 E.03314
G1 X23.353 Y22.557 E1.85691
G1 X22.734 Y22.557 E.03314
G1 X-1.799 Y-1.976 E1.85691
G1 X-2.418 Y-1.976 E.03314
G1 X22.115 Y22.557 E1.85691
G1 X21.496 Y22.557 E.03314
G1 X-3.037 Y-1.976 E1.85691
G1 X-3.656 Y-1.976 E.03314
M73 P8 R13
G1 X20.876 Y22.557 E1.85691
G1 X20.257 Y22.557 E.03314
G1 X-4.276 Y-1.976 E1.85691
G1 X-4.895 Y-1.976 E.03314
G1 X19.638 Y22.557 E1.85691
G1 X19.019 Y22.557 E.03314
G1 X-5.514 Y-1.976 E1.85691
G1 X-6.133 Y-1.976 E.03314
G1 X18.399 Y22.557 E1.85691
G1 X17.78 Y22.557 E.03314
G1 X-6.753 Y-1.976 E1.85691
G1 X-7.372 Y-1.976 E.03314
G1 X17.161 Y22.557 E1.85691
G1 X16.542 Y22.557 E.03314
G1 X-7.991 Y-1.976 E1.85691
G1 X-8.61 Y-1.976 E.03314
G1 X15.922 Y22.557 E1.85691
G1 X15.303 Y22.557 E.03314
G1 X-9.23 Y-1.976 E1.85691
G1 X-9.849 Y-1.976 E.03314
G1 X14.684 Y22.557 E1.85691
G1 X14.065 Y22.557 E.03314
G1 X-10.468 Y-1.976 E1.85691
G1 X-11.087 Y-1.976 E.03314
G1 X13.445 Y22.557 E1.85691
G1 X12.826 Y22.557 E.03314
G1 X-11.707 Y-1.976 E1.85691
G1 X-12.326 Y-1.976 E.03314
G1 X12.207 Y22.557 E1.85691
G1 X11.588 Y22.557 E.03314
M73 P9 R13
G1 X-12.945 Y-1.976 E1.85691
G1 X-13.564 Y-1.976 E.03314
G1 X10.968 Y22.557 E1.85691
G1 X10.349 Y22.557 E.03314
G1 X-14.184 Y-1.976 E1.85691
G1 X-14.803 Y-1.976 E.03314
G1 X9.73 Y22.557 E1.85691
G1 X9.111 Y22.557 E.03314
G1 X-15.422 Y-1.976 E1.85691
G1 X-16.041 Y-1.976 E.03314
G1 X8.492 Y22.557 E1.85691
G1 X7.872 Y22.557 E.03314
G1 X-16.661 Y-1.976 E1.85691
G1 X-17.28 Y-1.976 E.03314
G1 X7.253 Y22.557 E1.85691
G1 X6.634 Y22.557 E.03314
G1 X-17.899 Y-1.976 E1.85691
G1 X-18.518 Y-1.976 E.03314
G1 X6.015 Y22.557 E1.85691
G1 X5.395 Y22.557 E.03314
G1 X-19.138 Y-1.976 E1.85691
G1 X-19.757 Y-1.976 E.03314
G1 X4.776 Y22.557 E1.85691
G1 X4.157 Y22.557 E.03314
G1 X-20.376 Y-1.976 E1.85691
G1 X-20.995 Y-1.976 E.03314
G1 X3.538 Y22.557 E1.85691
G1 X2.918 Y22.557 E.03314
G1 X-21.615 Y-1.976 E1.85691
G1 X-22.234 Y-1.976 E.03314
M73 P10 R13
G1 X2.299 Y22.557 E1.85691
G1 X1.68 Y22.557 E.03314
G1 X-22.853 Y-1.976 E1.85691
G1 X-23.472 Y-1.976 E.03314
G1 X1.061 Y22.557 E1.85691
G1 X.441 Y22.557 E.03314
G1 X-24.092 Y-1.976 E1.85691
G1 X-24.711 Y-1.976 E.03314
G1 X-.178 Y22.557 E1.85691
G1 X-.797 Y22.557 E.03314
G1 X-25.33 Y-1.976 E1.85691
G1 X-25.949 Y-1.976 E.03314
G1 X-1.416 Y22.557 E1.85691
G1 X-2.036 Y22.557 E.03314
G1 X-26.569 Y-1.976 E1.85691
G1 X-27.188 Y-1.976 E.03314
G1 X-2.655 Y22.557 E1.85691
G1 X-3.274 Y22.557 E.03314
G1 X-27.807 Y-1.976 E1.85691
G1 X-28.426 Y-1.976 E.03314
G1 X-3.893 Y22.557 E1.85691
G1 X-4.513 Y22.557 E.03314
G1 X-29.045 Y-1.976 E1.85691
G1 X-29.665 Y-1.976 E.03314
G1 X-5.132 Y22.557 E1.85691
G1 X-5.751 Y22.557 E.03314
G1 X-30.284 Y-1.976 E1.85691
G1 X-30.903 Y-1.976 E.03314
G1 X-6.37 Y22.557 E1.85691
G1 X-6.99 Y22.557 E.03314
M73 P11 R13
G1 X-31.522 Y-1.976 E1.85691
G1 X-32.142 Y-1.976 E.03314
G1 X-7.609 Y22.557 E1.85691
G1 X-8.228 Y22.557 E.03314
G1 X-32.761 Y-1.976 E1.85691
G1 X-33.38 Y-1.976 E.03314
G1 X-8.847 Y22.557 E1.85691
G1 X-9.467 Y22.557 E.03314
G1 X-33.999 Y-1.976 E1.85691
G1 X-34.619 Y-1.976 E.03314
G1 X-10.086 Y22.557 E1.85691
G1 X-10.705 Y22.557 E.03314
G1 X-35.238 Y-1.976 E1.85691
G1 X-35.857 Y-1.976 E.03314
G1 X-11.324 Y22.557 E1.85691
G1 X-11.944 Y22.557 E.03314
G1 X-35.968 Y-1.467 E1.81844
G1 X-35.968 Y-.848 E.03314
G1 X-12.563 Y22.557 E1.77157
G1 X-13.182 Y22.557 E.03314
G1 X-35.968 Y-.229 E1.7247
G1 X-35.968 Y.39 E.03314
G1 X-13.801 Y22.557 E1.67783
G1 X-14.421 Y22.557 E.03314
G1 X-35.968 Y1.009 E1.63096
G1 X-35.968 Y1.629 E.03314
G1 X-15.04 Y22.557 E1.58409
G1 X-15.659 Y22.557 E.03314
G1 X-35.968 Y2.248 E1.53721
G1 X-35.968 Y2.867 E.03314
M73 P12 R13
G1 X-16.278 Y22.557 E1.49034
G1 X-16.898 Y22.557 E.03314
G1 X-35.968 Y3.486 E1.44347
G1 X-35.968 Y4.106 E.03314
G1 X-17.517 Y22.557 E1.3966
G1 X-18.136 Y22.557 E.03314
G1 X-35.968 Y4.725 E1.34973
G1 X-35.968 Y5.344 E.03314
G1 X-18.755 Y22.557 E1.30286
G1 X-19.374 Y22.557 E.03314
G1 X-35.968 Y5.963 E1.25599
G1 X-35.968 Y6.583 E.03314
G1 X-19.994 Y22.557 E1.20912
G1 X-20.613 Y22.557 E.03314
G1 X-35.968 Y7.202 E1.16225
G1 X-35.968 Y7.821 E.03314
G1 X-21.232 Y22.557 E1.11537
G1 X-21.851 Y22.557 E.03314
G1 X-35.968 Y8.44 E1.0685
G1 X-35.968 Y9.06 E.03314
G1 X-22.471 Y22.557 E1.02163
G1 X-23.09 Y22.557 E.03314
G1 X-35.968 Y9.679 E.97476
G1 X-35.968 Y10.298 E.03314
G1 X-23.709 Y22.557 E.92789
G1 X-24.328 Y22.557 E.03314
G1 X-35.968 Y10.917 E.88102
G1 X-35.968 Y11.537 E.03314
G1 X-24.948 Y22.557 E.83415
G1 X-25.567 Y22.557 E.03314
G1 X-35.968 Y12.156 E.78728
G1 X-35.968 Y12.775 E.03314
G1 X-26.186 Y22.557 E.7404
G1 X-26.805 Y22.557 E.03314
G1 X-35.968 Y13.394 E.69353
G1 X-35.968 Y14.014 E.03314
G1 X-27.425 Y22.557 E.64666
G1 X-28.044 Y22.557 E.03314
G1 X-35.968 Y14.633 E.59979
G1 X-35.968 Y15.252 E.03314
M73 P12 R12
G1 X-28.663 Y22.557 E.55292
G1 X-29.282 Y22.557 E.03314
G1 X-35.968 Y15.871 E.50605
M73 P13 R12
G1 X-35.968 Y16.491 E.03314
G1 X-29.902 Y22.557 E.45918
G1 X-30.521 Y22.557 E.03314
G1 X-35.968 Y17.11 E.41231
G1 X-35.968 Y17.729 E.03314
G1 X-31.14 Y22.557 E.36544
G1 X-31.759 Y22.557 E.03314
G1 X-35.968 Y18.348 E.31856
G1 X-35.968 Y18.968 E.03314
G1 X-32.379 Y22.557 E.27169
G1 X-32.998 Y22.557 E.03314
G1 X-35.968 Y19.587 E.22482
G1 X-35.968 Y20.206 E.03314
G1 X-33.617 Y22.557 E.17795
G1 X-34.236 Y22.557 E.03314
G1 X-35.968 Y20.825 E.13108
G1 X-35.968 Y21.445 E.03314
G1 X-34.856 Y22.557 E.08421
G1 X-35.475 Y22.557 E.03314
G1 X-36.164 Y21.868 E.05218
M106 S255
M106 P2 S255
;LAYER_CHANGE
;Z:0.58
;HEIGHT:0.28
;BEFORE_LAYER_CHANGE
;0.58
G1 E-.8 F2100
;WIPE_START
G1 F4800
G1 X-35.475 Y22.557
G1 X-34.856 Y22.557
G1 X-35.143 Y22.27
;WIPE_END
;AFTER_LAYER_CHANGE
;0.58
;_SET_FAN_SPEED_CHANGING_LAYER
SET_VELOCITY_LIMIT ACCEL=10000
M140 S50 ; set bed temperature
G17
G3 Z.98 I.007 J-1.217 P1  F30000
G1 X-36.732 Y22.26 Z.98
G1 Z.58
G1 E.8 F2100
SET_VELOCITY_LIMIT ACCEL=5000
;TYPE:Inner wall
;WIDTH:0.42
G1 F14884.613
G1 X-36.732 Y-2.74 E1.02649
G1 X40.329 Y-2.74 E3.16407
G1 X40.329 Y22.26 E1.02649
G1 X50.329 Y22.26 E.4106
G1 X50.329 Y23.321 E.04355
G1 X-46.732 Y23.321 E3.98526
G1 X-46.732 Y22.26 E.04355
G1 X-36.772 Y22.26 E.40895
SET_VELOCITY_LIMIT ACCEL=10000
G1 X-37.092 Y21.9 F30000
SET_VELOCITY_LIMIT ACCEL=5000
G1 F14884.613
G1 X-37.092 Y-3.1 E1.02649
G1 X40.688 Y-3.1 E3.19362
G1 X40.688 Y21.9 E1.02649
G1 X50.688 Y21.9 E.4106
G1 X50.688 Y23.681 E.0731
G1 X-47.092 Y23.681 E4.01481
G1 X-47.092 Y21.9 E.0731
G1 X-37.132 Y21.9 E.40895
SET_VELOCITY_LIMIT ACCEL=10000
G1 X-37.452 Y21.541 F30000
SET_VELOCITY_LIMIT ACCEL=5000
G1 F14884.613
G1 X-37.452 Y-3.459 E1.02649
G1 X41.048 Y-3.459 E3.22318
G1 X41.048 Y21.541 E1.02649
G1 X51.048 Y21.541 E.4106
G1 X51.048 Y24.041 E.10266
G1 X-47.452 Y24.041 E4.04437
G1 X-47.452 Y21.541 E.10266
G1 X-37.492 Y21.541 E.40895
SET_VELOCITY_LIMIT ACCEL=10000
G1 X-37.802 Y21.191 F30000
SET_VELOCITY_LIMIT ACCEL=3000
;TYPE:Outer wall
;WIDTH:0.4
G1 F12000
G1 X-37.802 Y-3.809 E.96945
G1 X41.398 Y-3.809 E3.07121
G1 X41.398 Y21.191 E.96945
G1 X51.398 Y21.191 E.38778
G1 X51.398 Y24.391 E.12409
G1 X-47.802 Y24.391 E3.84677
G1 X-47.802 Y21.191 E.12409
G1 X-37.842 Y21.191 E.38623
SET_VELOCITY_LIMIT ACCEL=10000
G1 E-.8 F2100
;WIPE_START
G1 F12000
G1 X-37.838 Y19.191
;WIPE_END
G1 X-36.996 Y22.616 Z.98 F30000
G1 Z.58
G1 E.8 F2100
SET_VELOCITY_LIMIT ACCEL=7000
;TYPE:Internal solid infill
;WIDTH:0.4104
G1 F15000
G1 X-46.377 Y22.616 E.37491
G1 X-46.377 Y22.966 E.014
G1 X-37.235 Y22.966 E.36535
G1 X-37.218 Y22.838 E.00515
G1 X-37.024 Y22.644 E.01098
SET_VELOCITY_LIMIT ACCEL=10000
G1 X-36.37 Y-2.436 F30000
SET_VELOCITY_LIMIT ACCEL=7000
;WIDTH:0.400089
G1 F15000
G1 X-36.434 Y-2.399 E.00286
G1 X-36.369 Y-2.365 E.00286
SET_VELOCITY_LIMIT ACCEL=10000
G1 X38.492 Y22.961 F30000
SET_VELOCITY_LIMIT ACCEL=7000
;WIDTH:0.412197
G1 F15000
M73 P14 R12
G1 X49.973 Y22.966 E.46122
G1 X49.973 Y22.616 E.01407
G1 X40.149 Y22.616 E.39466
G1 X39.969 Y22.44 E.01009
G1 X39.969 Y21.484 E.03842
G1 X38.52 Y22.933 E.0823
SET_VELOCITY_LIMIT ACCEL=10000
G1 X39.572 Y22.472 F30000
SET_VELOCITY_LIMIT ACCEL=7000
;WIDTH:0.568985
G1 F10526.99
G1 X39.509 Y22.472 E.00369
G1 X39.477 Y22.527 E.00369
G1 X39.509 Y22.582 E.00369
G1 X39.572 Y22.582 E.00369
G1 X39.584 Y22.561 E.00137
SET_VELOCITY_LIMIT ACCEL=10000
G1 X40.239 Y20.756 F30000
SET_VELOCITY_LIMIT ACCEL=7000
;WIDTH:0.420367
G1 F14869.469
G1 X37.925 Y23.069 E.13447
G1 X37.824 Y23.069 E.00417
G1 X37.807 Y23.052 E.00097
G1 X37.432 Y23.052 E.0154
G1 X40.077 Y20.408 E.1537
G1 X40.077 Y19.899 E.02094
G1 X36.923 Y23.052 E.18331
G1 X36.413 Y23.052 E.02094
G1 X40.077 Y19.389 E.21293
G1 X40.077 Y18.88 E.02094
G1 X35.904 Y23.052 E.24255
G1 X35.394 Y23.052 E.02094
G1 X40.077 Y18.37 E.27216
G1 X40.077 Y17.861 E.02094
G1 X34.885 Y23.052 E.30178
G1 X34.375 Y23.052 E.02094
G1 X40.077 Y17.351 E.33139
G1 X40.077 Y16.841 E.02094
G1 X33.866 Y23.052 E.36101
G1 X33.356 Y23.052 E.02094
G1 X40.077 Y16.332 E.39062
G1 X40.077 Y15.822 E.02094
G1 X32.847 Y23.052 E.42024
G1 X32.337 Y23.052 E.02094
G1 X40.077 Y15.313 E.44986
G1 X40.077 Y14.803 E.02094
G1 X31.828 Y23.052 E.47947
G1 X31.318 Y23.052 E.02094
G1 X40.077 Y14.294 E.50909
G1 X40.077 Y13.784 E.02094
G1 X30.809 Y23.052 E.5387
G1 X30.299 Y23.052 E.02094
G1 X40.077 Y13.275 E.56832
G1 X40.077 Y12.765 E.02094
G1 X29.79 Y23.052 E.59794
G1 X29.28 Y23.052 E.02094
G1 X40.077 Y12.256 E.62755
G1 X40.077 Y11.746 E.02094
G1 X28.771 Y23.052 E.65717
G1 X28.261 Y23.052 E.02094
G1 X40.077 Y11.237 E.68678
G1 X40.077 Y10.727 E.02094
G1 X27.752 Y23.052 E.7164
G1 X27.242 Y23.052 E.02094
G1 X40.077 Y10.218 E.74601
G1 X40.077 Y9.708 E.02094
G1 X26.733 Y23.052 E.77563
G1 X26.223 Y23.052 E.02094
G1 X40.077 Y9.199 E.80525
G1 X40.077 Y8.689 E.02094
G1 X25.714 Y23.052 E.83486
G1 X25.204 Y23.052 E.02094
